;Generated with Cura_SteamEngine 15.01
M82
M190 S60
M104 S210
G28
G90
G1 F210 Z5
G32 S1
M109 S210
G90
G92 E0
;Layer count: 48
;LAYER:0
M107
G0 F4200 X69.695 Y39.537 Z0.300
;TYPE:SKIRT
G1 F1800 X69.971 Y39.052 E0.02777
G1 X70.344 Y38.554 E0.05873
G1 X70.737 Y38.114 E0.08809
G1 X71.139 Y37.754 E0.11495
G1 X71.643 Y37.360 E0.14679
G1 X72.163 Y37.068 E0.17646
G1 X72.614 Y36.842 E0.20157
G1 X73.338 Y36.580 E0.23989
G1 X74.236 Y36.401 E0.28545
G1 X74.820 Y36.370 E0.31456
G1 X140.888 Y36.371 E3.60246
G1 X142.782 Y36.370 E3.69672
G1 X143.530 Y36.452 E3.73417
G1 X144.194 Y36.609 E3.76812
G1 X144.818 Y36.831 E3.80108
G1 X145.292 Y37.065 E3.82739
G1 X145.777 Y37.341 E3.85516
G1 X146.275 Y37.714 E3.88612
G1 X146.715 Y38.107 E3.91548
G1 X147.075 Y38.509 E3.94234
G1 X147.469 Y39.013 E3.97418
G1 X147.761 Y39.533 E4.00385
G1 X147.987 Y39.984 E4.02896
G1 X148.249 Y40.708 E4.06728
G1 X148.428 Y41.608 E4.11294
G1 X148.459 Y42.194 E4.14215
G1 X148.459 Y43.986 E4.23133
G1 X149.415 Y44.943 E4.29864
G1 X150.999 Y46.502 E4.40925
G1 X150.998 Y82.094 E6.18050
G1 X151.002 Y85.056 E6.32791
G1 X148.459 Y87.599 E6.50688
G1 X148.458 Y99.327 E7.09053
G1 X148.460 Y99.946 E7.12133
G1 X148.377 Y100.700 E7.15908
G1 X148.220 Y101.364 E7.19304
G1 X147.998 Y101.988 E7.22600
G1 X147.764 Y102.462 E7.25231
G1 X147.488 Y102.947 E7.28008
G1 X147.115 Y103.445 E7.31104
G1 X146.722 Y103.885 E7.34040
G1 X146.320 Y104.245 E7.36726
G1 X146.057 Y104.451 E7.38388
G1 X146.070 Y104.452 E7.38453
G1 X146.734 Y104.609 E7.41849
G1 X147.358 Y104.831 E7.45145
G1 X147.832 Y105.065 E7.47775
G1 X148.317 Y105.341 E7.50552
G1 X148.815 Y105.714 E7.53649
G1 X149.255 Y106.107 E7.56585
G1 X149.615 Y106.509 E7.59270
G1 X150.009 Y107.013 E7.62454
G1 X150.301 Y107.533 E7.65422
G1 X150.527 Y107.984 E7.67932
G1 X150.789 Y108.708 E7.71764
G1 X150.987 Y109.702 E7.76808
G1 X150.999 Y110.465 E7.80605
G1 X150.995 Y119.955 E8.27833
G1 X139.905 Y119.953 E8.83023
G1 X136.294 Y119.953 E9.00993
G1 X136.294 Y120.055 E9.01501
G1 X150.998 Y120.055 E9.74676
G1 X150.997 Y140.701 E10.77422
G1 X151.000 Y148.780 E11.17627
G1 X140.859 Y148.778 E11.68094
G1 X138.838 Y148.778 E11.78152
G1 X138.838 Y151.920 E11.93788
G1 X140.859 Y151.920 E12.03846
G1 X145.474 Y151.921 E12.26813
G1 X150.998 Y151.903 E12.54303
G1 X150.998 Y167.248 E13.30668
G1 X151.000 Y167.945 E13.34137
G1 X150.918 Y168.698 E13.37906
G1 X150.760 Y169.364 E13.41313
G1 X150.538 Y169.988 E13.44609
G1 X150.304 Y170.462 E13.47239
G1 X150.028 Y170.947 E13.50017
G1 X149.655 Y171.445 E13.53113
G1 X149.262 Y171.885 E13.56049
G1 X148.860 Y172.245 E13.58734
G1 X148.356 Y172.639 E13.61918
G1 X147.836 Y172.931 E13.64886
G1 X147.385 Y173.157 E13.67396
G1 X146.661 Y173.419 E13.71228
G1 X145.763 Y173.598 E13.75785
G1 X145.179 Y173.629 E13.78695
G1 X79.112 Y173.628 E17.07481
G1 X77.220 Y173.629 E17.16897
G1 X76.471 Y173.548 E17.20646
G1 X75.805 Y173.390 E17.24052
G1 X75.181 Y173.168 E17.27348
G1 X74.707 Y172.934 E17.29979
G1 X74.222 Y172.658 E17.32756
G1 X73.724 Y172.285 E17.35852
G1 X73.284 Y171.892 E17.38788
G1 X72.924 Y171.490 E17.41474
G1 X72.530 Y170.986 E17.44657
G1 X72.238 Y170.466 E17.47625
G1 X72.012 Y170.015 E17.50136
G1 X71.750 Y169.291 E17.53967
G1 X71.571 Y168.391 E17.58534
G1 X71.540 Y167.806 E17.61449
G1 X71.541 Y155.599 E18.22198
G1 X70.584 Y154.642 E18.28933
G1 X69.000 Y153.083 E18.39994
G1 X69.001 Y117.491 E20.17119
G1 X68.997 Y114.529 E20.31860
G1 X71.541 Y111.986 E20.49761
G1 X71.541 Y110.479 E20.57260
G1 X71.537 Y110.072 E20.59286
G1 X71.622 Y109.299 E20.63156
G1 X71.779 Y108.635 E20.66551
G1 X72.001 Y108.011 E20.69847
G1 X72.235 Y107.537 E20.72478
G1 X72.511 Y107.052 E20.75255
G1 X72.884 Y106.554 E20.78352
G1 X73.277 Y106.114 E20.81287
G1 X73.679 Y105.754 E20.83973
G1 X73.942 Y105.548 E20.85636
G1 X73.929 Y105.547 E20.85700
G1 X73.265 Y105.390 E20.89096
G1 X72.641 Y105.168 E20.92392
G1 X72.167 Y104.934 E20.95023
G1 X71.682 Y104.658 E20.97800
G1 X71.184 Y104.285 E21.00896
G1 X70.744 Y103.892 E21.03832
G1 X70.384 Y103.490 E21.06518
G1 X69.990 Y102.986 E21.09701
G1 X69.698 Y102.466 E21.12669
G1 X69.472 Y102.015 E21.15180
G1 X69.210 Y101.291 E21.19011
G1 X69.031 Y100.391 E21.23578
G1 X69.000 Y99.806 E21.26493
G1 X69.001 Y43.696 E24.05727
G1 X69.000 Y42.050 E24.13919
G1 X69.081 Y41.301 E24.17668
G1 X69.239 Y40.635 E24.21074
G1 X69.461 Y40.011 E24.24370
G1 X69.695 Y39.537 E24.27001
G1 F2400 E23.27001
G0 F4200 X75.196 Y42.566
;TYPE:WALL-INNER
G1 F2400 E24.27001
G1 F1800 X142.263 Y42.566 E27.60763
G1 X142.262 Y46.052 E27.78111
G1 X142.267 Y46.557 E27.80625
G1 X144.803 Y49.094 E27.98476
G1 X144.802 Y82.095 E29.62707
G1 X144.802 Y82.492 E29.64683
G1 X142.612 Y84.682 E29.80096
G1 X142.263 Y85.037 E29.82573
G1 X142.262 Y99.328 E30.53693
G1 X142.262 Y99.433 E30.54216
G1 X75.196 Y99.433 E33.87973
G1 X75.196 Y42.566 E36.70974
G0 F4200 X87.603 Y46.346
G1 F1800 X87.548 Y46.604 E36.72287
G1 X87.529 Y46.869 E36.73609
G1 X87.548 Y47.134 E36.74931
G1 X87.603 Y47.393 E36.76249
G1 X87.695 Y47.644 E36.77580
G1 X87.819 Y47.876 E36.78889
G1 X87.970 Y48.084 E36.80168
G1 X88.155 Y48.278 E36.81502
G1 X88.368 Y48.446 E36.82852
G1 X88.599 Y48.577 E36.84173
G1 X88.873 Y48.688 E36.85645
G1 X89.326 Y48.769 E36.87935
G1 X89.663 Y48.758 E36.89613
G1 X90.112 Y48.645 E36.91917
G1 X90.376 Y48.515 E36.93381
G1 X90.592 Y48.373 E36.94668
G1 X90.794 Y48.191 E36.96021
G1 X90.968 Y47.985 E36.97363
G1 X91.126 Y47.729 E36.98860
G1 X91.283 Y47.298 E37.01143
G1 X91.324 Y46.999 E37.02645
G1 X91.324 Y46.740 E37.03934
G1 X91.288 Y46.474 E37.05269
G1 X91.213 Y46.219 E37.06592
G1 X91.108 Y45.981 E37.07887
G1 X90.968 Y45.754 E37.09214
G1 X90.795 Y45.549 E37.10549
G1 X90.597 Y45.370 E37.11877
G1 X90.383 Y45.229 E37.13153
G1 X90.146 Y45.110 E37.14472
G1 X89.890 Y45.027 E37.15812
G1 X89.628 Y44.980 E37.17136
G1 X89.326 Y44.970 E37.18640
G1 X88.840 Y45.057 E37.21097
G1 X88.394 Y45.273 E37.23563
G1 X88.157 Y45.460 E37.25066
G1 X87.974 Y45.649 E37.26375
G1 X87.824 Y45.856 E37.27647
G1 X87.696 Y46.092 E37.28983
G1 X87.603 Y46.346 E37.30329
G0 F4200 X90.596 Y93.230
G1 F1800 X90.110 Y93.317 E37.32786
G1 X89.664 Y93.533 E37.35252
G1 X89.427 Y93.720 E37.36755
G1 X89.244 Y93.909 E37.38064
G1 X89.094 Y94.116 E37.39336
G1 X88.966 Y94.352 E37.40672
G1 X88.873 Y94.606 E37.42018
G1 X88.818 Y94.868 E37.43351
G1 X88.801 Y95.129 E37.44652
G1 X88.818 Y95.390 E37.45954
G1 X88.873 Y95.653 E37.47291
G1 X88.965 Y95.904 E37.48621
G1 X89.089 Y96.136 E37.49931
G1 X89.240 Y96.344 E37.51210
G1 X89.425 Y96.538 E37.52544
G1 X89.638 Y96.706 E37.53894
G1 X89.869 Y96.837 E37.55215
G1 X90.143 Y96.948 E37.56687
G1 X90.596 Y97.029 E37.58977
G1 X90.933 Y97.018 E37.60655
G1 X91.380 Y96.906 E37.62948
G1 X91.649 Y96.775 E37.64437
G1 X91.870 Y96.626 E37.65763
G1 X92.065 Y96.450 E37.67071
G1 X92.238 Y96.245 E37.68406
G1 X92.396 Y95.989 E37.69903
G1 X92.553 Y95.558 E37.72185
G1 X92.594 Y95.259 E37.73687
G1 X92.594 Y95.000 E37.74976
G1 X92.558 Y94.734 E37.76312
G1 X92.483 Y94.479 E37.77635
G1 X92.378 Y94.241 E37.78929
G1 X92.238 Y94.014 E37.80257
G1 X92.065 Y93.809 E37.81592
G1 X91.870 Y93.633 E37.82899
G1 X91.620 Y93.465 E37.84398
G1 X91.194 Y93.293 E37.86684
G1 X90.898 Y93.240 E37.88181
G1 X90.596 Y93.230 E37.89684
G0 F4200 X139.673 Y80.353
G1 F1800 X139.765 Y80.604 E37.91015
G1 X139.889 Y80.836 E37.92324
G1 X140.040 Y81.044 E37.93603
G1 X140.225 Y81.238 E37.94937
G1 X140.438 Y81.406 E37.96287
G1 X140.669 Y81.537 E37.97609
G1 X140.943 Y81.648 E37.99080
G1 X141.396 Y81.729 E38.01370
G1 X141.733 Y81.718 E38.03048
G1 X142.182 Y81.605 E38.05352
G1 X142.446 Y81.475 E38.06817
G1 X142.662 Y81.333 E38.08103
G1 X142.864 Y81.151 E38.09456
G1 X143.038 Y80.945 E38.10798
G1 X143.196 Y80.689 E38.12295
G1 X143.353 Y80.258 E38.14578
G1 X143.394 Y79.959 E38.16080
G1 X143.394 Y79.700 E38.17369
G1 X143.358 Y79.434 E38.18705
G1 X143.283 Y79.179 E38.20027
G1 X143.178 Y78.941 E38.21322
G1 X143.038 Y78.714 E38.22649
G1 X142.865 Y78.509 E38.23984
G1 X142.667 Y78.330 E38.25312
G1 X142.453 Y78.189 E38.26588
G1 X142.216 Y78.070 E38.27908
G1 X141.960 Y77.987 E38.29247
G1 X141.698 Y77.940 E38.30571
G1 X141.396 Y77.930 E38.32075
G1 X140.910 Y78.017 E38.34532
G1 X140.464 Y78.233 E38.36998
G1 X140.227 Y78.420 E38.38501
G1 X140.044 Y78.609 E38.39810
G1 X139.894 Y78.816 E38.41082
G1 X139.766 Y79.052 E38.42418
G1 X139.673 Y79.306 E38.43764
G1 X139.618 Y79.569 E38.45101
G1 X139.601 Y79.830 E38.46403
G1 X139.618 Y80.091 E38.47705
G1 X139.673 Y80.353 E38.49037
G0 F4200 X141.396 Y53.849
G1 F1800 X141.733 Y53.838 E38.50715
G1 X142.182 Y53.725 E38.53019
G1 X142.446 Y53.595 E38.54484
G1 X142.662 Y53.453 E38.55770
G1 X142.864 Y53.271 E38.57123
G1 X143.038 Y53.065 E38.58465
G1 X143.196 Y52.809 E38.59962
G1 X143.353 Y52.378 E38.62245
G1 X143.394 Y52.079 E38.63747
G1 X143.394 Y51.820 E38.65036
G1 X143.358 Y51.554 E38.66372
G1 X143.283 Y51.299 E38.67694
G1 X143.178 Y51.061 E38.68989
G1 X143.038 Y50.834 E38.70316
G1 X142.865 Y50.629 E38.71651
G1 X142.667 Y50.450 E38.72979
G1 X142.453 Y50.309 E38.74255
G1 X142.216 Y50.190 E38.75575
G1 X141.960 Y50.107 E38.76914
G1 X141.698 Y50.060 E38.78239
G1 X141.396 Y50.050 E38.79742
G1 X140.910 Y50.137 E38.82199
G1 X140.464 Y50.353 E38.84665
G1 X140.227 Y50.540 E38.86168
G1 X140.044 Y50.729 E38.87477
G1 X139.894 Y50.936 E38.88749
G1 X139.766 Y51.172 E38.90085
G1 X139.673 Y51.426 E38.91431
G1 X139.618 Y51.689 E38.92769
G1 X139.601 Y51.950 E38.94070
G1 X139.618 Y52.211 E38.95372
G1 X139.673 Y52.473 E38.96704
G1 X139.765 Y52.724 E38.98035
G1 X139.889 Y52.956 E38.99344
G1 X140.040 Y53.164 E39.00623
G1 X140.225 Y53.358 E39.01957
G1 X140.438 Y53.526 E39.03307
G1 X140.669 Y53.657 E39.04628
G1 X140.943 Y53.768 E39.06100
G1 X141.396 Y53.849 E39.08390
G0 F4200 X141.425 Y53.449
G1 F1800 X141.677 Y53.441 E39.09644
G1 X142.044 Y53.349 E39.11527
G1 X142.247 Y53.249 E39.12654
G1 X142.417 Y53.136 E39.13669
G1 X142.577 Y52.992 E39.14741
G1 X142.714 Y52.831 E39.15793
G1 X142.835 Y52.634 E39.16943
G1 X142.964 Y52.282 E39.18809
G1 X142.995 Y52.052 E39.19964
G1 X142.995 Y51.847 E39.20984
G1 X142.967 Y51.637 E39.22038
G1 X142.908 Y51.436 E39.23081
G1 X142.714 Y51.068 E39.25151
G1 X142.578 Y50.907 E39.26200
G1 X142.422 Y50.766 E39.27246
G1 X142.253 Y50.654 E39.28255
G1 X142.064 Y50.560 E39.29306
G1 X141.863 Y50.495 E39.30357
G1 X141.656 Y50.458 E39.31404
G1 X141.425 Y50.450 E39.32554
G1 X141.035 Y50.520 E39.34526
G1 X140.677 Y50.693 E39.36504
G1 X140.495 Y50.836 E39.37656
G1 X140.351 Y50.986 E39.38691
G1 X140.232 Y51.149 E39.39695
G1 X140.130 Y51.336 E39.40756
G1 X140.058 Y51.536 E39.41813
G1 X140.014 Y51.743 E39.42867
G1 X140.001 Y51.950 E39.43899
G1 X140.014 Y52.156 E39.44926
G1 X140.058 Y52.363 E39.45979
G1 X140.130 Y52.561 E39.47028
G1 X140.228 Y52.744 E39.48061
G1 X140.347 Y52.908 E39.49069
G1 X140.494 Y53.062 E39.50129
G1 X140.661 Y53.194 E39.51188
G1 X141.054 Y53.383 E39.53358
G1 X141.425 Y53.449 E39.55233
G0 F4200 X142.714 Y52.831
G0 X145.202 Y48.929
G1 F1800 X145.202 Y82.657 E41.23082
G1 X142.895 Y84.963 E41.39315
G1 X142.662 Y85.200 E41.40969
G1 X142.661 Y99.328 E42.11278
G1 X142.662 Y99.638 E42.12821
G1 X142.649 Y99.729 E42.13278
G1 X142.629 Y99.765 E42.13483
G1 X142.583 Y99.807 E42.13793
G1 X142.496 Y99.832 E42.14244
G1 X74.987 Y99.832 E45.50205
G1 X74.897 Y99.817 E45.50659
G1 X74.838 Y99.774 E45.51023
G1 X74.810 Y99.729 E45.51286
G1 X74.797 Y99.665 E45.51611
G1 X74.797 Y42.358 E48.36802
G1 X74.810 Y42.270 E48.37245
G1 X74.830 Y42.234 E48.37450
G1 X74.882 Y42.189 E48.37792
G1 X74.900 Y42.180 E48.37892
G1 X74.963 Y42.167 E48.38213
G1 X142.471 Y42.167 E51.74169
G1 X142.559 Y42.180 E51.74612
G1 X142.595 Y42.200 E51.74817
G1 X142.635 Y42.243 E51.75109
G1 X142.649 Y42.270 E51.75261
G1 X142.661 Y42.330 E51.75565
G1 X142.662 Y42.342 E51.75625
G1 X142.661 Y46.050 E51.94078
G1 X142.665 Y46.390 E51.95770
G1 X145.202 Y48.929 E52.13632
G0 F4200 X141.656 Y78.338
G1 F1800 X141.425 Y78.330 E52.14783
G1 X141.035 Y78.400 E52.16755
G1 X140.677 Y78.573 E52.18733
G1 X140.495 Y78.716 E52.19885
G1 X140.351 Y78.866 E52.20920
G1 X140.232 Y79.029 E52.21924
G1 X140.130 Y79.216 E52.22984
G1 X140.058 Y79.416 E52.24042
G1 X140.014 Y79.623 E52.25095
G1 X140.001 Y79.830 E52.26128
G1 X140.014 Y80.036 E52.27155
G1 X140.058 Y80.243 E52.28208
G1 X140.130 Y80.441 E52.29256
G1 X140.228 Y80.624 E52.30289
G1 X140.347 Y80.788 E52.31298
G1 X140.494 Y80.942 E52.32357
G1 X140.661 Y81.074 E52.33417
G1 X141.054 Y81.263 E52.35587
G1 X141.425 Y81.329 E52.37462
G1 X141.677 Y81.321 E52.38717
G1 X142.044 Y81.229 E52.40600
G1 X142.247 Y81.129 E52.41726
G1 X142.417 Y81.016 E52.42742
G1 X142.577 Y80.872 E52.43813
G1 X142.714 Y80.711 E52.44865
G1 X142.835 Y80.514 E52.46016
G1 X142.964 Y80.162 E52.47881
G1 X142.995 Y79.932 E52.49036
G1 X142.995 Y79.727 E52.50056
G1 X142.967 Y79.517 E52.51111
G1 X142.908 Y79.316 E52.52153
G1 X142.714 Y78.948 E52.54224
G1 X142.578 Y78.787 E52.55272
G1 X142.422 Y78.646 E52.56319
G1 X142.253 Y78.534 E52.57328
G1 X142.064 Y78.440 E52.58378
G1 X141.863 Y78.375 E52.59430
G1 X141.656 Y78.338 E52.60476
G0 F4200 X92.108 Y94.616
G1 F1800 X91.914 Y94.248 E52.62546
G1 X91.778 Y94.087 E52.63595
G1 X91.623 Y93.948 E52.64631
G1 X91.432 Y93.819 E52.65778
G1 X91.083 Y93.678 E52.67651
G1 X90.856 Y93.638 E52.68799
G1 X90.625 Y93.630 E52.69949
G1 X90.235 Y93.700 E52.71921
G1 X89.877 Y93.873 E52.73899
G1 X89.695 Y94.016 E52.75051
G1 X89.551 Y94.166 E52.76086
G1 X89.432 Y94.329 E52.77090
G1 X89.330 Y94.516 E52.78150
G1 X89.258 Y94.716 E52.79208
G1 X89.214 Y94.923 E52.80261
G1 X89.201 Y95.129 E52.81289
G1 X89.214 Y95.336 E52.82321
G1 X89.258 Y95.543 E52.83374
G1 X89.330 Y95.741 E52.84422
G1 X89.428 Y95.924 E52.85456
G1 X89.547 Y96.088 E52.86464
G1 X89.694 Y96.242 E52.87523
G1 X89.861 Y96.374 E52.88583
G1 X90.254 Y96.563 E52.90753
G1 X90.625 Y96.629 E52.92628
G1 X90.877 Y96.621 E52.93883
G1 X91.243 Y96.529 E52.95761
G1 X91.449 Y96.428 E52.96903
G1 X91.623 Y96.311 E52.97946
G1 X91.778 Y96.172 E52.98982
G1 X91.914 Y96.011 E53.00031
G1 X92.035 Y95.814 E53.01182
G1 X92.164 Y95.462 E53.03047
G1 X92.195 Y95.232 E53.04202
G1 X92.195 Y95.027 E53.05223
G1 X92.167 Y94.817 E53.06277
G1 X92.108 Y94.616 E53.07319
G0 F4200 X89.607 Y48.361
G1 F1800 X89.974 Y48.269 E53.09202
G1 X90.177 Y48.169 E53.10328
G1 X90.347 Y48.056 E53.11344
G1 X90.507 Y47.912 E53.12416
G1 X90.644 Y47.751 E53.13468
G1 X90.765 Y47.554 E53.14618
G1 X90.894 Y47.202 E53.16484
G1 X90.925 Y46.972 E53.17639
G1 X90.925 Y46.767 E53.18659
G1 X90.897 Y46.557 E53.19713
G1 X90.838 Y46.356 E53.20756
G1 X90.644 Y45.988 E53.22826
G1 X90.508 Y45.827 E53.23875
G1 X90.352 Y45.686 E53.24921
G1 X90.183 Y45.574 E53.25930
G1 X89.994 Y45.480 E53.26981
G1 X89.793 Y45.415 E53.28032
G1 X89.586 Y45.378 E53.29078
G1 X89.355 Y45.370 E53.30229
G1 X88.965 Y45.440 E53.32201
G1 X88.607 Y45.613 E53.34179
G1 X88.425 Y45.756 E53.35331
G1 X88.281 Y45.906 E53.36366
G1 X88.162 Y46.069 E53.37370
G1 X88.060 Y46.256 E53.38430
G1 X87.988 Y46.456 E53.39488
G1 X87.944 Y46.660 E53.40527
G1 X87.929 Y46.869 E53.41570
G1 X87.944 Y47.079 E53.42617
G1 X87.988 Y47.283 E53.43656
G1 X88.060 Y47.481 E53.44704
G1 X88.158 Y47.664 E53.45737
G1 X88.277 Y47.828 E53.46746
G1 X88.424 Y47.982 E53.47805
G1 X88.591 Y48.114 E53.48865
G1 X88.984 Y48.303 E53.51035
G1 X89.355 Y48.369 E53.52910
G1 X89.607 Y48.361 E53.54165
G0 F4200 X89.552 Y47.963
;TYPE:WALL-OUTER
G1 F1800 X89.836 Y47.892 E53.55622
G1 X89.978 Y47.822 E53.56410
G1 X90.102 Y47.740 E53.57149
G1 X90.220 Y47.634 E53.57939
G1 X90.320 Y47.516 E53.58709
G1 X90.404 Y47.379 E53.59508
G1 X90.504 Y47.105 E53.60960
G1 X90.526 Y46.945 E53.61764
G1 X90.526 Y46.794 E53.62515
G1 X90.505 Y46.641 E53.63284
