;Generated with Cura_SteamEngine 15.01
M82
M190 S60
M104 S210
G28
G90
G1 F210 Z5
G32 S1
M109 S210
G90
G92 E0
;Layer count: 173
;LAYER:0
M107
G0 F4200 X75.018 Y76.047 Z0.300
;TYPE:SKIRT
G1 F1800 X76.048 Y75.210 E0.06605
G1 X77.194 Y74.452 E0.13443
G1 X78.429 Y73.807 E0.20376
G1 X79.565 Y73.360 E0.26452
G1 X79.947 Y73.225 E0.28468
G1 X80.902 Y72.970 E0.33387
G1 X81.266 Y72.878 E0.35256
G1 X82.248 Y72.722 E0.40204
G1 X82.631 Y72.665 E0.42131
G1 X83.759 Y72.607 E0.47752
G1 X135.891 Y72.601 E3.07189
G1 X137.362 Y72.660 E3.14516
G1 X138.765 Y72.882 E3.21584
G1 X140.105 Y73.238 E3.28484
G1 X141.408 Y73.732 E3.35419
G1 X142.655 Y74.362 E3.42372
G1 X143.825 Y75.115 E3.49296
G1 X144.914 Y75.988 E3.56242
G1 X145.952 Y77.018 E3.63519
G1 X146.789 Y78.048 E3.70124
G1 X147.547 Y79.194 E3.76962
G1 X148.192 Y80.429 E3.83896
G1 X148.639 Y81.565 E3.89971
G1 X148.774 Y81.947 E3.91987
G1 X149.029 Y82.902 E3.96906
G1 X149.121 Y83.266 E3.98775
G1 X149.277 Y84.248 E4.03723
G1 X149.334 Y84.631 E4.05650
G1 X149.392 Y85.759 E4.11271
G1 X149.398 Y123.891 E6.01037
G1 X149.339 Y125.362 E6.08363
G1 X149.117 Y126.765 E6.15432
G1 X148.761 Y128.105 E6.22332
G1 X148.267 Y129.408 E6.29267
G1 X147.637 Y130.655 E6.36220
G1 X146.884 Y131.825 E6.43144
G1 X146.011 Y132.914 E6.50090
G1 X144.981 Y133.952 E6.57367
G1 X144.064 Y134.697 E6.63247
G1 X143.757 Y134.926 E6.65153
G1 X142.787 Y135.556 E6.70909
G1 X141.568 Y136.192 E6.77751
G1 X140.434 Y136.639 E6.83817
G1 X140.052 Y136.774 E6.85833
G1 X139.097 Y137.029 E6.90753
G1 X138.733 Y137.121 E6.92621
G1 X137.751 Y137.277 E6.97569
G1 X137.369 Y137.334 E6.99491
G1 X136.241 Y137.392 E7.05112
G1 X84.109 Y137.398 E9.64550
G1 X82.637 Y137.339 E9.71881
G1 X81.234 Y137.117 E9.78950
G1 X79.894 Y136.761 E9.85850
G1 X78.590 Y136.266 E9.92791
G1 X77.346 Y135.637 E9.99728
G1 X76.176 Y134.885 E10.06650
G1 X75.085 Y134.011 E10.13607
G1 X74.047 Y132.981 E10.20884
G1 X73.302 Y132.064 E10.26764
G1 X73.073 Y131.757 E10.28670
G1 X72.443 Y130.787 E10.34426
G1 X71.807 Y129.568 E10.41268
G1 X71.360 Y128.434 E10.47334
G1 X71.225 Y128.052 E10.49350
G1 X70.970 Y127.097 E10.54270
G1 X70.878 Y126.733 E10.56138
G1 X70.722 Y125.751 E10.61086
G1 X70.665 Y125.369 E10.63008
G1 X70.607 Y124.242 E10.68624
G1 X70.601 Y86.109 E12.58395
G1 X70.660 Y84.637 E12.65726
G1 X70.882 Y83.234 E12.72795
G1 X71.238 Y81.894 E12.79695
G1 X71.733 Y80.590 E12.86636
G1 X72.362 Y79.346 E12.93574
G1 X73.114 Y78.176 E13.00495
G1 X73.988 Y77.085 E13.07452
G1 X75.018 Y76.047 E13.14729
G1 F2400 E12.14729
G0 F4200 X79.181 Y80.648
;TYPE:WALL-INNER
G1 F2400 E13.14729
G1 F1800 X79.719 Y80.211 E13.18179
G1 X80.344 Y79.798 E13.21907
G1 X81.009 Y79.451 E13.25639
G1 X81.740 Y79.162 E13.29551
G1 X82.462 Y78.966 E13.33274
G1 X83.199 Y78.845 E13.36991
G1 X83.924 Y78.803 E13.40605
G1 X135.771 Y78.797 E15.98624
G1 X136.747 Y78.836 E16.03485
G1 X137.482 Y78.953 E16.07189
G1 X138.211 Y79.146 E16.10942
G1 X138.902 Y79.408 E16.14620
G1 X139.575 Y79.748 E16.18372
G1 X140.203 Y80.152 E16.22088
G1 X140.781 Y80.616 E16.25777
G1 X141.351 Y81.181 E16.29771
G1 X141.788 Y81.719 E16.33220
G1 X142.201 Y82.344 E16.36948
G1 X142.548 Y83.009 E16.40681
G1 X142.840 Y83.749 E16.44640
G1 X143.029 Y84.446 E16.48234
G1 X143.154 Y85.199 E16.52033
G1 X143.196 Y85.924 E16.55647
G1 X143.202 Y123.771 E18.43994
G1 X143.163 Y124.747 E18.48855
G1 X143.046 Y125.482 E18.52559
G1 X142.853 Y126.211 E18.56312
G1 X142.591 Y126.902 E18.59990
G1 X142.251 Y127.575 E18.63742
G1 X141.847 Y128.203 E18.67458
G1 X141.386 Y128.778 E18.71126
G1 X140.821 Y129.348 E18.75120
G1 X140.252 Y129.811 E18.78770
G1 X139.660 Y130.200 E18.82296
G1 X138.994 Y130.547 E18.86033
G1 X138.259 Y130.837 E18.89965
G1 X137.537 Y131.033 E18.93688
G1 X136.800 Y131.154 E18.97405
G1 X136.076 Y131.196 E19.01014
G1 X84.229 Y131.202 E21.59033
G1 X83.252 Y131.163 E21.63899
G1 X82.517 Y131.046 E21.67603
G1 X81.788 Y130.853 E21.71356
G1 X81.097 Y130.591 E21.75033
G1 X80.427 Y130.252 E21.78770
G1 X79.794 Y129.845 E21.82515
G1 X79.218 Y129.383 E21.86190
G1 X78.648 Y128.818 E21.90184
G1 X78.182 Y128.244 E21.93863
G1 X77.799 Y127.660 E21.97339
G1 X77.452 Y126.994 E22.01076
G1 X77.159 Y126.250 E22.05056
G1 X76.966 Y125.537 E22.08732
G1 X76.845 Y124.800 E22.12448
G1 X76.803 Y124.076 E22.16057
G1 X76.797 Y86.229 E24.04405
G1 X76.836 Y85.252 E24.09271
G1 X76.953 Y84.517 E24.12975
G1 X77.146 Y83.788 E24.16728
G1 X77.408 Y83.097 E24.20405
G1 X77.747 Y82.427 E24.24142
G1 X78.154 Y81.794 E24.27887
G1 X78.616 Y81.218 E24.31562
G1 X79.181 Y80.648 E24.35556
G0 F4200 X79.564 Y81.833
G1 F1800 X79.472 Y81.746 E24.36186
G1 X79.339 Y82.000 E24.37613
G1 X79.242 Y82.072 E24.38214
G1 X79.281 Y82.109 E24.38481
G1 X78.510 Y83.581 E24.46751
G1 X78.231 Y84.356 E24.50850
G1 X78.059 Y85.165 E24.54966
G1 X78.004 Y85.956 E24.58912
G1 X78.003 Y86.631 E24.62271
G1 X78.003 Y91.383 E24.85920
G1 X78.816 Y91.732 E24.90323
G1 X78.385 Y92.142 E24.93283
G1 X78.647 Y92.800 E24.96808
G1 X78.385 Y93.457 E25.00328
G1 X78.816 Y93.867 E25.03288
G1 X78.003 Y94.216 E25.07691
G1 X78.003 Y103.583 E25.54306
G1 X78.816 Y103.932 E25.58709
G1 X78.385 Y104.341 E25.61666
G1 X78.648 Y105.000 E25.65197
G1 X78.385 Y105.658 E25.68724
G1 X78.816 Y106.067 E25.71681
G1 X78.003 Y106.416 E25.76084
G1 X78.003 Y115.783 E26.22699
G1 X78.816 Y116.132 E26.27102
G1 X78.385 Y116.542 E26.30062
G1 X78.647 Y117.200 E26.33587
G1 X78.385 Y117.857 E26.37107
G1 X78.816 Y118.267 E26.40067
G1 X78.003 Y118.616 E26.44470
G1 X78.003 Y124.041 E26.71468
G1 X78.056 Y124.823 E26.75369
G1 X78.227 Y125.634 E26.79493
G1 X78.506 Y126.410 E26.83597
G1 X79.281 Y127.891 E26.91916
G1 X79.243 Y127.927 E26.92176
G1 X79.337 Y127.997 E26.92759
G1 X79.471 Y128.253 E26.94197
G1 X79.564 Y128.165 E26.94834
G1 X80.702 Y129.010 E27.01888
G1 X81.305 Y129.359 E27.05356
G1 X81.948 Y129.637 E27.08842
G1 X82.616 Y129.836 E27.12310
G1 X83.302 Y129.957 E27.15777
G1 X83.970 Y129.997 E27.19107
G1 X89.913 Y129.997 E27.48683
G1 X90.302 Y129.023 E27.53902
G1 X90.800 Y128.809 E27.56600
G1 X91.297 Y129.023 E27.59293
G1 X91.686 Y129.997 E27.64512
G1 X102.713 Y129.997 E28.19389
G1 X103.102 Y129.022 E28.24613
G1 X103.600 Y128.809 E28.27308
G1 X104.097 Y129.022 E28.29999
G1 X104.486 Y129.997 E28.35223
G1 X115.513 Y129.997 E28.90099
G1 X115.902 Y129.023 E28.95319
G1 X116.400 Y128.809 E28.98016
G1 X116.897 Y129.022 E29.00707
G1 X117.286 Y129.997 E29.05931
G1 X128.313 Y129.997 E29.60808
G1 X128.702 Y129.023 E29.66027
G1 X129.200 Y128.809 E29.68725
G1 X129.697 Y129.022 E29.71416
G1 X130.086 Y129.997 E29.76640
G1 X136.037 Y129.997 E30.06255
G1 X136.696 Y129.957 E30.09541
G1 X137.373 Y129.839 E30.12961
G1 X138.042 Y129.640 E30.16434
G1 X138.684 Y129.364 E30.19912
G1 X139.289 Y129.016 E30.23385
G1 X140.435 Y128.165 E30.30489
G1 X140.527 Y128.253 E30.31122
G1 X140.661 Y127.998 E30.32556
G1 X140.756 Y127.927 E30.33146
G1 X140.717 Y127.890 E30.33414
G1 X141.489 Y126.418 E30.41685
G1 X141.768 Y125.643 E30.45784
G1 X141.940 Y124.835 E30.49896
G1 X141.996 Y124.044 E30.53842
G1 X141.997 Y123.368 E30.57206
G1 X141.997 Y118.616 E30.80855
G1 X141.183 Y118.267 E30.85262
G1 X141.614 Y117.857 E30.88223
G1 X141.352 Y117.200 E30.91743
G1 X141.614 Y116.542 E30.95267
G1 X141.183 Y116.132 E30.98227
G1 X141.997 Y115.783 E31.02635
G1 X141.997 Y106.416 E31.49250
G1 X141.184 Y106.067 E31.53653
G1 X141.614 Y105.658 E31.56607
G1 X141.351 Y105.000 E31.60133
G1 X141.614 Y104.341 E31.63664
G1 X141.184 Y103.932 E31.66617
G1 X141.997 Y103.583 E31.71020
G1 X141.997 Y94.216 E32.17636
G1 X141.183 Y93.867 E32.22043
G1 X141.614 Y93.457 E32.25004
G1 X141.352 Y92.800 E32.28524
G1 X141.614 Y92.142 E32.32048
G1 X141.183 Y91.732 E32.35009
G1 X141.997 Y91.383 E32.39416
G1 X141.997 Y85.959 E32.66409
G1 X141.943 Y85.175 E32.70320
G1 X141.772 Y84.365 E32.74440
G1 X141.493 Y83.589 E32.78543
G1 X140.718 Y82.108 E32.86862
G1 X140.756 Y82.072 E32.87122
G1 X140.662 Y82.002 E32.87706
G1 X140.528 Y81.746 E32.89144
G1 X140.435 Y81.834 E32.89781
G1 X139.297 Y80.989 E32.96835
G1 X138.694 Y80.640 E33.00302
G1 X138.051 Y80.362 E33.03788
G1 X137.383 Y80.163 E33.07257
G1 X136.696 Y80.042 E33.10728
G1 X136.029 Y80.003 E33.14053
G1 X130.086 Y80.003 E33.43629
G1 X129.697 Y80.976 E33.48844
G1 X129.200 Y81.190 E33.51537
G1 X128.701 Y80.976 E33.54239
G1 X128.313 Y80.003 E33.59452
G1 X117.286 Y80.003 E34.14328
G1 X116.897 Y80.976 E34.19543
G1 X116.400 Y81.190 E34.22236
G1 X115.901 Y80.976 E34.24938
G1 X115.513 Y80.003 E34.30151
G1 X104.486 Y80.003 E34.85027
G1 X104.097 Y80.976 E34.90242
G1 X103.599 Y81.190 E34.92939
G1 X103.102 Y80.976 E34.95632
G1 X102.713 Y80.003 E35.00847
G1 X91.686 Y80.003 E35.55723
G1 X91.298 Y80.976 E35.60936
G1 X90.799 Y81.190 E35.63638
G1 X90.301 Y80.976 E35.66336
G1 X89.913 Y80.003 E35.71549
G1 X83.963 Y80.003 E36.01159
G1 X83.304 Y80.042 E36.04445
G1 X82.626 Y80.160 E36.07869
G1 X81.957 Y80.359 E36.11343
G1 X81.315 Y80.635 E36.14821
G1 X80.710 Y80.983 E36.18294
G1 X79.564 Y81.833 E36.25395
G0 F4200 X90.302 Y92.423
G1 F1800 X90.800 Y92.209 E36.28092
G1 X91.297 Y92.423 E36.30785
G1 X91.447 Y92.800 E36.32804
G1 X91.297 Y93.176 E36.34819
G1 X90.800 Y93.390 E36.37512
G1 X90.302 Y93.176 E36.40209
G1 X90.152 Y92.800 E36.42224
G1 X90.302 Y92.423 E36.44243
G1 F2400 E35.44243
G0 F4200 X90.799 Y104.409
G1 F2400 E36.44243
G1 F1800 X91.298 Y104.623 E36.46945
G1 X91.448 Y105.000 E36.48964
G1 X91.298 Y105.376 E36.50979
G1 X90.800 Y105.590 E36.53676
G1 X90.301 Y105.376 E36.56378
G1 X90.151 Y105.000 E36.58393
G1 X90.301 Y104.623 E36.60412
G1 X90.799 Y104.409 E36.63109
G0 F4200 X90.800 Y116.609
G1 F1800 X91.297 Y116.823 E36.65802
G1 X91.447 Y117.200 E36.67822
G1 X91.297 Y117.576 E36.69836
G1 X90.800 Y117.790 E36.72529
G1 X90.302 Y117.576 E36.75226
G1 X90.152 Y117.200 E36.77241
G1 X90.302 Y116.823 E36.79260
G1 X90.800 Y116.609 E36.81958
G1 F2400 E35.81958
G0 F4200 X102.952 Y117.200
G1 F2400 E36.81958
G1 F1800 X103.102 Y116.822 E36.83982
G1 X103.600 Y116.609 E36.86677
G1 X104.097 Y116.822 E36.89368
G1 X104.247 Y117.200 E36.91392
G1 X104.097 Y117.577 E36.93411
G1 X103.600 Y117.790 E36.96102
G1 X103.102 Y117.577 E36.98797
G1 X102.952 Y117.200 E37.00817
G0 F4200 X102.489 Y117.386
G0 X102.626 Y115.918
G0 X97.582 Y111.099
G0 X103.080 Y105.837
G0 X103.600 Y105.590
G1 F1800 X103.102 Y105.376 E37.03514
G1 X102.951 Y105.000 E37.05531
G1 X103.102 Y104.623 E37.07552
G1 X103.599 Y104.409 E37.10244
G1 X104.097 Y104.623 E37.12942
G1 X104.248 Y105.000 E37.14963
G1 X104.097 Y105.376 E37.16979
G1 X103.600 Y105.590 E37.19672
G0 F4200 X103.600 Y93.390
G1 F1800 X103.102 Y93.177 E37.22368
G1 X102.952 Y92.800 E37.24387
G1 X103.102 Y92.422 E37.26411
G1 X103.600 Y92.209 E37.29106
G1 X104.097 Y92.422 E37.31797
G1 X104.247 Y92.799 E37.33816
G1 X104.097 Y93.177 E37.35840
G1 X103.600 Y93.390 E37.38531
G0 F4200 X110.000 Y98.546
G0 X115.504 Y93.344
G0 X115.289 Y92.986
G0 X115.752 Y92.800
G1 F1800 X115.902 Y92.423 E37.40550
G1 X116.400 Y92.209 E37.43248
G1 X116.897 Y92.422 E37.45939
G1 X117.047 Y92.799 E37.47958
G1 X116.897 Y93.177 E37.49982
G1 X116.400 Y93.390 E37.52673
G1 X115.902 Y93.176 E37.55370
G1 X115.752 Y92.800 E37.57385
G0 F4200 X115.289 Y92.986
G0 X115.397 Y94.107
G0 X110.382 Y98.900
G0 X115.881 Y104.162
G0 X116.400 Y104.409
G1 F1800 X116.897 Y104.623 E37.60078
G1 X117.048 Y105.000 E37.62099
G1 X116.897 Y105.376 E37.64115
G1 X116.400 Y105.590 E37.66808
G1 X115.901 Y105.376 E37.69510
G1 X115.751 Y105.000 E37.71525
G1 X115.901 Y104.623 E37.73544
G1 X116.400 Y104.409 E37.76246
G0 F4200 X116.400 Y116.609
G1 F1800 X116.897 Y116.822 E37.78937
G1 X117.047 Y117.200 E37.80961
G1 X116.897 Y117.577 E37.82980
G1 X116.400 Y117.790 E37.85671
G1 X115.902 Y117.576 E37.88368
G1 X115.752 Y117.200 E37.90383
G1 X115.902 Y116.823 E37.92402
G1 X116.400 Y116.609 E37.95099
G1 F2400 E36.95099
G0 F4200 X128.552 Y117.200
G1 F2400 E37.95099
G1 F1800 X128.702 Y116.823 E37.97119
G1 X129.200 Y116.609 E37.99816
G1 X129.697 Y116.822 E38.02507
G1 X129.847 Y117.200 E38.04531
G1 X129.697 Y117.577 E38.06550
G1 X129.200 Y117.790 E38.09241
G1 X128.702 Y117.576 E38.11938
G1 X128.552 Y117.200 E38.13953
G0 F4200 X128.089 Y117.386
G0 X128.226 Y115.917
G0 X123.182 Y111.099
G0 X128.681 Y105.837
G0 X129.200 Y105.590
G1 F1800 X128.701 Y105.376 E38.16655
G1 X128.551 Y105.000 E38.18670
G1 X128.701 Y104.623 E38.20689
G1 X129.200 Y104.409 E38.23391
G1 X129.697 Y104.623 E38.26084
G1 X129.848 Y105.000 E38.28105
G1 X129.697 Y105.376 E38.30121
G1 X129.200 Y105.590 E38.32814
G0 F4200 X129.200 Y93.390
G1 F1800 X128.702 Y93.176 E38.35512
G1 X128.552 Y92.800 E38.37526
G1 X128.702 Y92.423 E38.39545
G1 X129.200 Y92.209 E38.42243
G1 X129.697 Y92.422 E38.44934
G1 X129.847 Y92.799 E38.46953
G1 X129.697 Y93.177 E38.48977
G1 X129.200 Y93.390 E38.51668
G0 F4200 X129.200 Y93.824
G1 F1800 X128.674 Y93.598 E38.54517
G1 X123.093 Y98.900 E38.92826
G1 X128.674 Y104.201 E39.31132
G1 X129.200 Y103.975 E39.33981
G1 X129.726 Y104.201 E39.36830
G1 X135.306 Y98.900 E39.75132
G1 X129.726 Y93.598 E40.13438
G1 X129.200 Y93.824 E40.16287
G0 F4200 X130.277 Y92.799
G1 F1800 X130.055 Y93.353 E40.19257
G1 X135.600 Y98.621 E40.57320
G1 X141.144 Y93.353 E40.95379
G1 X140.922 Y92.799 E40.98350
G1 X141.144 Y92.246 E41.01315
G1 X135.600 Y86.978 E41.39374
G1 X130.055 Y92.246 E41.77437
G1 X130.277 Y92.799 E41.80403
G0 F4200 X130.369 Y92.762
G0 X128.030 Y92.836
G0 X128.122 Y92.799
G1 F1800 X128.344 Y92.246 E41.83368
G1 X122.800 Y86.978 E42.21428
G1 X117.255 Y92.246 E42.59490
G1 X117.477 Y92.799 E42.62456
G1 X117.255 Y93.353 E42.65426
G1 X122.800 Y98.621 E43.03489
G1 X128.344 Y93.353 E43.41548
G1 X128.122 Y92.799 E43.44518
G0 F4200 X129.200 Y91.775
G1 F1800 X129.726 Y92.001 E43.47368
G1 X135.306 Y86.699 E43.85673
G1 X129.726 Y81.398 E44.23976
G1 X129.200 Y81.624 E44.26825
G1 X128.674 Y81.398 E44.29674
G1 X123.093 Y86.699 E44.67980
G1 X128.674 Y92.001 E45.06289
G1 X129.200 Y91.775 E45.09138
G0 F4200 X128.681 Y91.962
G0 X122.800 Y86.421
G1 F1800 X128.344 Y81.155 E45.47190
G1 X128.043 Y80.402 E45.51226
G1 X117.556 Y80.402 E46.03415
G1 X117.255 Y81.155 E46.07451
G1 X122.800 Y86.421 E46.45507
G0 F4200 X122.506 Y86.699
G1 F1800 X116.926 Y81.398 E46.83809
G1 X116.400 Y81.624 E46.86658
G1 X115.874 Y81.398 E46.89507
G1 X110.293 Y86.699 E47.27813
G1 X115.874 Y92.001 E47.66122
G1 X116.400 Y91.775 E47.68971
G1 X116.926 Y92.001 E47.71820
G1 X122.506 Y86.699 E48.10126
G0 F4200 X116.919 Y81.437
G0 X115.544 Y81.155
G1 F1800 X115.243 Y80.402 E48.14162
G1 X104.756 Y80.402 E48.66351
G1 X104.455 Y81.155 E48.70386
G1 X110.000 Y86.421 E49.08443
G1 X115.544 Y81.155 E49.46495
G0 F4200 X109.706 Y86.699
G1 F1800 X104.126 Y81.398 E49.84797
G1 X103.600 Y81.624 E49.87646
G1 X103.073 Y81.398 E49.90500
G1 X97.493 Y86.699 E50.28802
G1 X103.073 Y92.001 E50.67108
G1 X103.600 Y91.775 E50.69962
G1 X104.126 Y92.001 E50.72811
G1 X109.706 Y86.699 E51.11116
G0 F4200 X110.000 Y86.978
G1 F1800 X104.455 Y92.246 E51.49179
G1 X104.677 Y92.799 E51.52145
G1 X104.455 Y93.353 E51.55115
G1 X110.000 Y98.621 E51.93178
G1 X115.544 Y93.353 E52.31237
G1 X115.322 Y92.799 E52.34207
G1 X115.544 Y92.246 E52.37173
G1 X110.000 Y86.978 E52.75232
G0 F4200 X104.495 Y92.255
G0 X104.126 Y93.598
G1 F1800 X103.600 Y93.824 E52.78081
G1 X103.073 Y93.598 E52.80935
G1 X97.493 Y98.900 E53.19240
G1 X103.073 Y104.201 E53.57543
G1 X103.600 Y103.975 E53.60396
G1 X104.126 Y104.201 E53.63245
G1 X109.706 Y98.900 E54.01548
G1 X104.126 Y93.598 E54.39853
G0 F4200 X110.000 Y99.178
G1 F1800 X104.455 Y104.444 E54.77909
G1 X104.677 Y104.999 E54.80884
G1 X104.455 Y105.555 E54.83863
G1 X110.000 Y110.821 E55.21920
G1 X115.544 Y105.555 E55.59972
G1 X115.322 Y104.999 E55.62951
