;Generated with Cura_SteamEngine 15.01
M82
M190 S60
M104 S210
G28
G90
G1 F210 Z5
G32 S1
M109 S210
G90
G92 E0
;Layer count: 173
;LAYER:0
M107
G0 F4200 X75.018 Y76.047 Z0.300
;TYPE:SKIRT
G1 F1800 X76.048 Y75.210 E0.06605
G1 X77.194 Y74.452 E0.13443
G1 X78.429 Y73.807 E0.20376
G1 X79.565 Y73.360 E0.26452
G1 X79.947 Y73.225 E0.28468
G1 X80.902 Y72.970 E0.33387
G1 X81.266 Y72.878 E0.35256
G1 X82.248 Y72.722 E0.40204
G1 X82.631 Y72.665 E0.42131
G1 X83.759 Y72.607 E0.47752
G1 X135.891 Y72.601 E3.07189
G1 X137.362 Y72.660 E3.14516
G1 X138.765 Y72.882 E3.21584
G1 X140.105 Y73.238 E3.28484
G1 X141.408 Y73.732 E3.35419
G1 X142.655 Y74.362 E3.42372
G1 X143.825 Y75.115 E3.49296
G1 X144.914 Y75.988 E3.56242
G1 X145.952 Y77.018 E3.63519
G1 X146.789 Y78.048 E3.70124
G1 X147.547 Y79.194 E3.76962
G1 X148.192 Y80.429 E3.83896
G1 X148.639 Y81.565 E3.89971
G1 X148.774 Y81.947 E3.91987
G1 X149.029 Y82.902 E3.96906
G1 X149.121 Y83.266 E3.98775
G1 X149.277 Y84.248 E4.03723
G1 X149.334 Y84.631 E4.05650
G1 X149.392 Y85.759 E4.11271
G1 X149.398 Y123.891 E6.01037
G1 X149.339 Y125.362 E6.08363
G1 X149.117 Y126.765 E6.15432
G1 X148.761 Y128.105 E6.22332
G1 X148.267 Y129.408 E6.29267
G1 X147.637 Y130.655 E6.36220
G1 X146.884 Y131.825 E6.43144
G1 X146.011 Y132.914 E6.50090
G1 X144.981 Y133.952 E6.57367
G1 X144.064 Y134.697 E6.63247
G1 X143.757 Y134.926 E6.65153
G1 X142.787 Y135.556 E6.70909
G1 X141.568 Y136.192 E6.77751
G1 X140.434 Y136.639 E6.83817
G1 X140.052 Y136.774 E6.85833
G1 X139.097 Y137.029 E6.90753
G1 X138.733 Y137.121 E6.92621
G1 X137.751 Y137.277 E6.97569
G1 X137.369 Y137.334 E6.99491
G1 X136.241 Y137.392 E7.05112
G1 X84.109 Y137.398 E9.64550
G1 X82.637 Y137.339 E9.71881
G1 X81.234 Y137.117 E9.78950
G1 X79.894 Y136.761 E9.85850
G1 X78.590 Y136.266 E9.92791
G1 X77.346 Y135.637 E9.99728
G1 X76.176 Y134.885 E10.06650
G1 X75.085 Y134.011 E10.13607
G1 X74.047 Y132.981 E10.20884
G1 X73.302 Y132.064 E10.26764
G1 X73.073 Y131.757 E10.28670
G1 X72.443 Y130.787 E10.34426
G1 X71.807 Y129.568 E10.41268
G1 X71.360 Y128.434 E10.47334
G1 X71.225 Y128.052 E10.49350
G1 X70.970 Y127.097 E10.54270
G1 X70.878 Y126.733 E10.56138
G1 X70.722 Y125.751 E10.61086
G1 X70.665 Y125.369 E10.63008
G1 X70.607 Y124.242 E10.68624
G1 X70.601 Y86.109 E12.58395
G1 X70.660 Y84.637 E12.65726
G1 X70.882 Y83.234 E12.72795
G1 X71.238 Y81.894 E12.79695
G1 X71.733 Y80.590 E12.86636
G1 X72.362 Y79.346 E12.93574
G1 X73.114 Y78.176 E13.00495
G1 X73.988 Y77.085 E13.07452
G1 X75.018 Y76.047 E13.14729
G1 F2400 E12.14729
G0 F4200 X79.181 Y80.648
;TYPE:WALL-INNER
G1 F2400 E13.14729
G1 F1800 X79.719 Y80.211 E13.18179
G1 X80.344 Y79.798 E13.21907
G1 X81.009 Y79.451 E13.25639
G1 X81.740 Y79.162 E13.29551
G1 X82.462 Y78.966 E13.33274
G1 X83.199 Y78.845 E13.36991
G1 X83.924 Y78.803 E13.40605
G1 X135.771 Y78.797 E15.98624
G1 X136.747 Y78.836 E16.03485
G1 X137.482 Y78.953 E16.07189
G1 X138.211 Y79.146 E16.10942
G1 X138.902 Y79.408 E16.14620
G1 X139.575 Y79.748 E16.18372
G1 X140.203 Y80.152 E16.22088
G1 X140.781 Y80.616 E16.25777
G1 X141.351 Y81.181 E16.29771
G1 X141.788 Y81.719 E16.33220
G1 X142.201 Y82.344 E16.36948
G1 X142.548 Y83.009 E16.40681
G1 X142.840 Y83.749 E16.44640
G1 X143.029 Y84.446 E16.48234
G1 X143.154 Y85.199 E16.52033
G1 X143.196 Y85.924 E16.55647
G1 X143.202 Y123.771 E18.43994
G1 X143.163 Y124.743 E18.48835
G1 X143.046 Y125.482 E18.52559
G1 X142.853 Y126.211 E18.56312
G1 X142.591 Y126.902 E18.59989
G1 X142.251 Y127.575 E18.63742
G1 X141.847 Y128.203 E18.67458
G1 X141.386 Y128.778 E18.71125
G1 X140.821 Y129.348 E18.75119
G1 X140.252 Y129.811 E18.78770
G1 X139.660 Y130.200 E18.82295
G1 X138.994 Y130.547 E18.86033
G1 X138.259 Y130.837 E18.89965
G1 X137.537 Y131.033 E18.93688
G1 X136.800 Y131.154 E18.97405
G1 X136.076 Y131.196 E19.01014
G1 X84.229 Y131.202 E21.59033
G1 X83.252 Y131.163 E21.63899
G1 X82.517 Y131.046 E21.67603
G1 X81.788 Y130.853 E21.71356
G1 X81.097 Y130.591 E21.75033
G1 X80.427 Y130.252 E21.78770
G1 X79.794 Y129.845 E21.82515
G1 X79.218 Y129.383 E21.86190
G1 X78.648 Y128.818 E21.90184
G1 X78.188 Y128.252 E21.93813
G1 X77.799 Y127.660 E21.97339
G1 X77.452 Y126.994 E22.01076
G1 X77.159 Y126.250 E22.05055
G1 X76.966 Y125.537 E22.08731
G1 X76.845 Y124.800 E22.12448
G1 X76.803 Y124.076 E22.16057
G1 X76.797 Y86.229 E24.04405
G1 X76.836 Y85.252 E24.09271
G1 X76.953 Y84.517 E24.12974
G1 X77.146 Y83.788 E24.16727
G1 X77.408 Y83.097 E24.20405
G1 X77.747 Y82.427 E24.24142
G1 X78.154 Y81.794 E24.27887
G1 X78.616 Y81.218 E24.31561
G1 X79.181 Y80.648 E24.35556
G0 F4200 X79.839 Y81.545
G1 F1800 X79.771 Y81.474 E24.36045
G1 X79.653 Y81.661 E24.37145
G1 X79.508 Y81.753 E24.38000
G1 X79.561 Y81.808 E24.38380
G1 X78.728 Y83.135 E24.46177
G1 X78.414 Y83.812 E24.49891
G1 X78.186 Y84.523 E24.53607
G1 X78.048 Y85.255 E24.57314
G1 X78.003 Y85.969 E24.60874
G1 X78.003 Y96.033 E25.10958
G1 X78.989 Y96.428 E25.16244
G1 X79.200 Y96.924 E25.18926
G1 X79.000 Y97.397 E25.21482
G1 X78.003 Y97.801 E25.26836
G1 X78.003 Y112.198 E25.98483
G1 X79.000 Y112.602 E26.03836
G1 X79.200 Y113.075 E26.06392
G1 X78.989 Y113.571 E26.09075
G1 X78.003 Y113.966 E26.14361
G1 X78.003 Y124.039 E26.64489
G1 X78.048 Y124.743 E26.68000
G1 X78.182 Y125.467 E26.71664
G1 X78.409 Y126.177 E26.75374
G1 X78.724 Y126.855 E26.79094
G1 X79.560 Y128.191 E26.86937
G1 X79.509 Y128.245 E26.87307
G1 X79.650 Y128.334 E26.88137
G1 X79.770 Y128.526 E26.89263
G1 X79.839 Y128.454 E26.89760
G1 X81.120 Y129.263 E26.97300
G1 X81.800 Y129.581 E27.01035
G1 X82.514 Y129.811 E27.04768
G1 X83.249 Y129.950 E27.08491
G1 X83.967 Y129.997 E27.12072
G1 X93.390 Y129.997 E27.58966
G1 X93.817 Y128.996 E27.64382
G1 X94.300 Y128.803 E27.66970
G1 X94.782 Y128.996 E27.69554
G1 X95.209 Y129.997 E27.74970
G1 X109.090 Y129.997 E28.44049
G1 X109.518 Y128.995 E28.49472
G1 X110.000 Y128.802 E28.52055
G1 X110.481 Y128.995 E28.54635
G1 X110.909 Y129.997 E28.60057
G1 X124.790 Y129.997 E29.29136
G1 X125.217 Y128.996 E29.34552
G1 X125.700 Y128.803 E29.37141
G1 X126.182 Y128.996 E29.39725
G1 X126.609 Y129.997 E29.45140
G1 X136.040 Y129.997 E29.92074
G1 X136.749 Y129.950 E29.95610
G1 X137.475 Y129.815 E29.99285
G1 X138.190 Y129.585 E30.03023
G1 X138.871 Y129.267 E30.06763
G1 X140.160 Y128.454 E30.14348
G1 X140.228 Y128.525 E30.14837
G1 X140.346 Y128.338 E30.15937
G1 X140.491 Y128.246 E30.16792
G1 X140.438 Y128.191 E30.17172
G1 X141.271 Y126.864 E30.24969
G1 X141.585 Y126.187 E30.28683
G1 X141.813 Y125.476 E30.32399
G1 X141.951 Y124.745 E30.36101
G1 X141.997 Y124.032 E30.39656
G1 X141.997 Y113.966 E30.89750
G1 X141.010 Y113.570 E30.95043
G1 X140.799 Y113.075 E30.97721
G1 X140.999 Y112.602 E31.00276
G1 X141.997 Y112.197 E31.05636
G1 X141.997 Y97.801 E31.77279
G1 X140.999 Y97.397 E31.82637
G1 X140.799 Y96.924 E31.85193
G1 X141.010 Y96.429 E31.87870
G1 X141.997 Y96.033 E31.93163
G1 X141.997 Y85.961 E32.43287
G1 X141.951 Y85.255 E32.46808
G1 X141.817 Y84.532 E32.50467
G1 X141.590 Y83.822 E32.54176
G1 X141.275 Y83.144 E32.57897
G1 X140.439 Y81.808 E32.65740
G1 X140.490 Y81.754 E32.66110
G1 X140.349 Y81.665 E32.66939
G1 X140.229 Y81.473 E32.68066
G1 X140.160 Y81.545 E32.68562
G1 X138.879 Y80.736 E32.76102
G1 X138.199 Y80.418 E32.79838
G1 X137.485 Y80.188 E32.83571
G1 X136.749 Y80.049 E32.87299
G1 X136.032 Y80.003 E32.90874
G1 X126.609 Y80.003 E33.37768
G1 X126.182 Y81.003 E33.43179
G1 X125.700 Y81.196 E33.45763
G1 X125.217 Y81.003 E33.48352
G1 X124.790 Y80.003 E33.53763
G1 X110.909 Y80.003 E34.22842
G1 X110.482 Y81.003 E34.28254
G1 X110.000 Y81.197 E34.30839
G1 X109.517 Y81.003 E34.33430
G1 X109.090 Y80.003 E34.38841
G1 X95.209 Y80.003 E35.07920
G1 X94.782 Y81.003 E35.13332
G1 X94.300 Y81.196 E35.15915
G1 X93.817 Y81.003 E35.18504
G1 X93.390 Y80.003 E35.23915
G1 X83.961 Y80.003 E35.70839
G1 X83.251 Y80.049 E35.74380
G1 X82.524 Y80.184 E35.78060
G1 X81.809 Y80.414 E35.81797
G1 X81.128 Y80.732 E35.85538
G1 X79.839 Y81.545 E35.93122
G0 F4200 X93.910 Y96.429
G1 F1800 X94.300 Y96.273 E35.95212
G1 X94.689 Y96.429 E35.97298
G1 X94.900 Y96.924 E35.99976
G1 X94.700 Y97.397 E36.02531
G1 X94.300 Y97.559 E36.04679
G1 X93.899 Y97.397 E36.06831
G1 X93.699 Y96.924 E36.09387
G1 X93.910 Y96.429 E36.12065
G1 F2400 E35.12065
G0 F4200 X109.399 Y96.924
G1 F2400 E36.12065
G1 F1800 X109.610 Y96.428 E36.14747
G1 X110.000 Y96.272 E36.16838
G1 X110.389 Y96.428 E36.18923
G1 X110.600 Y96.924 E36.21606
G1 X110.400 Y97.397 E36.24162
G1 X109.999 Y97.560 E36.26316
G1 X109.599 Y97.397 E36.28465
G1 X109.399 Y96.924 E36.31021
G1 F2400 E35.31021
G0 F4200 X125.099 Y96.924
G1 F2400 E36.31021
G1 F1800 X125.310 Y96.429 E36.33699
G1 X125.700 Y96.273 E36.35789
G1 X126.089 Y96.429 E36.37875
G1 X126.300 Y96.924 E36.40553
G1 X126.100 Y97.397 E36.43109
G1 X125.700 Y97.559 E36.45256
G1 X125.299 Y97.397 E36.47408
G1 X125.099 Y96.924 E36.49964
G0 F4200 X124.641 Y97.120
G0 X124.720 Y98.281
G0 X118.208 Y105.000
G0 X125.160 Y112.192
G0 X125.700 Y112.439
G1 F1800 X126.100 Y112.602 E36.52114
G1 X126.300 Y113.075 E36.54669
G1 X126.089 Y113.570 E36.57347
G1 X125.700 Y113.726 E36.59433
G1 X125.310 Y113.570 E36.61523
G1 X125.099 Y113.075 E36.64201
G1 X125.299 Y112.602 E36.66757
G1 X125.700 Y112.439 E36.68911
G0 F4200 X124.745 Y112.466
G0 X117.849 Y105.375
G0 X110.847 Y112.551
G0 X111.058 Y112.879
G0 X110.600 Y113.075
G1 F1800 X110.389 Y113.571 E36.71593
G1 X110.000 Y113.727 E36.73679
G1 X109.610 Y113.571 E36.75770
G1 X109.399 Y113.075 E36.78452
G1 X109.599 Y112.602 E36.81008
G1 X110.000 Y112.439 E36.83162
G1 X110.400 Y112.602 E36.85311
G1 X110.600 Y113.075 E36.87867
G1 F2400 E35.87867
G0 F4200 X94.900 Y113.075
G1 F2400 E36.87867
G1 F1800 X94.689 Y113.570 E36.90545
G1 X94.300 Y113.726 E36.92631
G1 X93.910 Y113.570 E36.94721
G1 X93.699 Y113.075 E36.97399
G1 X93.899 Y112.602 E36.99955
G1 X94.300 Y112.439 E37.02109
G1 X94.700 Y112.602 E37.04258
G1 X94.900 Y113.075 E37.06814
G0 F4200 X95.334 Y113.075
G1 F1800 X95.109 Y113.602 E37.09666
G1 X102.150 Y120.964 E37.60362
G1 X109.190 Y113.602 E38.11054
G1 X108.965 Y113.075 E38.13906
G1 X109.190 Y112.543 E38.16781
G1 X102.150 Y105.289 E38.67086
G1 X95.109 Y112.543 E39.17395
G1 X95.334 Y113.075 E39.20270
G0 F4200 X94.300 Y112.010
G1 F1800 X94.847 Y112.232 E39.23207
G1 X101.868 Y105.000 E39.73369
G1 X94.848 Y97.767 E40.23530
G1 X94.300 Y97.989 E40.26472
G1 X93.751 Y97.767 E40.29419
G1 X86.731 Y105.000 E40.79580
G1 X93.752 Y112.232 E41.29742
G1 X94.300 Y112.010 E41.32684
G0 F4200 X94.300 Y114.156
G1 F1800 X93.747 Y113.934 E41.35649
G1 X86.737 Y121.265 E41.86127
G1 X93.747 Y128.595 E42.36602
G1 X94.300 Y128.373 E42.39567
G1 X94.852 Y128.595 E42.42528
G1 X101.862 Y121.265 E42.93002
G1 X94.852 Y113.934 E43.43480
G1 X94.300 Y114.156 E43.46441
G0 F4200 X93.265 Y113.075
G1 F1800 X93.490 Y112.543 E43.49316
G1 X86.449 Y105.289 E43.99625
G1 X79.409 Y112.543 E44.49930
G1 X79.634 Y113.075 E44.52805
G1 X79.409 Y113.602 E44.55657
G1 X86.449 Y120.964 E45.06349
G1 X93.490 Y113.602 E45.57045
G1 X93.265 Y113.075 E45.59897
G0 F4200 X93.174 Y113.115
G0 X93.451 Y113.594
G0 X86.162 Y121.265
G1 F1800 X79.153 Y113.934 E46.10371
G1 X78.402 Y114.236 E46.14400
G1 X78.402 Y124.026 E46.63120
G1 X78.444 Y124.694 E46.66451
G1 X78.570 Y125.369 E46.69868
G1 X78.782 Y126.032 E46.73332
G1 X79.075 Y126.665 E46.76803
G1 X79.836 Y127.880 E46.83938
G1 X86.162 Y121.265 E47.29488
G0 F4200 X86.449 Y121.565
G1 F1800 X80.135 Y128.168 E47.74954
G1 X81.312 Y128.912 E47.81883
G1 X81.947 Y129.209 E47.85372
G1 X82.613 Y129.424 E47.88855
G1 X83.300 Y129.553 E47.92333
G1 X83.980 Y129.598 E47.95725
G1 X93.127 Y129.598 E48.41245
G1 X93.437 Y128.872 E48.45174
G1 X86.449 Y121.565 E48.95490
G0 F4200 X93.398 Y128.880
G0 X93.105 Y129.565
G0 X84.238 Y131.601
G1 F1800 X83.207 Y131.559 E49.00625
G1 X82.429 Y131.436 E49.04545
G1 X81.670 Y131.235 E49.08452
G1 X80.937 Y130.957 E49.12353
G1 X80.224 Y130.596 E49.16331
G1 X79.569 Y130.175 E49.20205
G1 X78.944 Y129.674 E49.24192
G1 X78.352 Y129.087 E49.28341
G1 X77.883 Y128.510 E49.32041
G1 X77.455 Y127.863 E49.35902
G1 X77.086 Y127.155 E49.39875
G1 X76.795 Y126.416 E49.43827
G1 X76.581 Y125.641 E49.47828
G1 X76.565 Y125.578 E49.48152
G1 X76.451 Y124.863 E49.51755
G1 X76.404 Y124.096 E49.55579
G1 X76.398 Y86.238 E51.43981
G1 X76.440 Y85.207 E51.49117
G1 X76.563 Y84.429 E51.53036
G1 X76.764 Y83.670 E51.56944
G1 X77.042 Y82.937 E51.60845
G1 X77.403 Y82.224 E51.64822
G1 X77.824 Y81.569 E51.68697
G1 X78.325 Y80.944 E51.72683
G1 X78.912 Y80.352 E51.76832
G1 X79.479 Y79.891 E51.80469
G1 X80.144 Y79.452 E51.84435
G1 X80.844 Y79.086 E51.88366
G1 X81.583 Y78.795 E51.92318
G1 X82.358 Y78.581 E51.96319
G1 X82.421 Y78.565 E51.96643
G1 X83.136 Y78.451 E52.00246
G1 X83.903 Y78.404 E52.04070
G1 X135.762 Y78.398 E54.62149
G1 X136.792 Y78.440 E54.67279
G1 X137.570 Y78.563 E54.71199
G1 X138.329 Y78.764 E54.75106
G1 X139.062 Y79.042 E54.79008
G1 X139.771 Y79.400 E54.82960
G1 X140.434 Y79.827 E54.86885
G1 X141.055 Y80.325 E54.90846
G1 X141.647 Y80.912 E54.94995
G1 X142.108 Y81.479 E54.98632
G1 X142.547 Y82.144 E55.02597
G1 X142.913 Y82.844 E55.06528
G1 X143.204 Y83.583 E55.10481
G1 X143.416 Y84.349 E55.14436
G1 X143.434 Y84.421 E55.14805
G1 X143.548 Y85.136 E55.18409
G1 X143.595 Y85.903 E55.22233
G1 X143.601 Y123.762 E57.10640
G1 X143.559 Y124.792 E57.15770
G1 X143.436 Y125.570 E57.19690
G1 X143.235 Y126.329 E57.23597
G1 X142.957 Y127.062 E57.27499
G1 X142.599 Y127.771 E57.31451
G1 X142.172 Y128.434 E57.35376
G1 X141.674 Y129.055 E57.39337
G1 X141.087 Y129.647 E57.43486
G1 X140.514 Y130.113 E57.47162
G1 X139.863 Y130.544 E57.51047
G1 X139.155 Y130.913 E57.55020
G1 X138.416 Y131.204 E57.58973
G1 X137.641 Y131.418 E57.62974
G1 X137.578 Y131.434 E57.63297
G1 X136.863 Y131.548 E57.66901
G1 X136.097 Y131.595 E57.70720
G1 X84.238 Y131.601 E60.28799
G0 F4200 X95.162 Y128.872
G1 F1800 X95.472 Y129.598 E60.32727
G1 X108.827 Y129.598 E60.99189
G1 X109.137 Y128.872 E61.03117
G1 X102.150 Y121.565 E61.53430
G1 X95.162 Y128.872 E62.03746
G0 F4200 X102.437 Y121.265
G1 F1800 X109.446 Y128.595 E62.54217
G1 X110.000 Y128.372 E62.57189
G1 X110.553 Y128.595 E62.60156
G1 X117.562 Y121.265 E63.10627
G1 X110.553 Y113.934 E63.61101
G1 X110.000 Y114.157 E63.64069
G1 X109.446 Y113.934 E63.67041
G1 X102.437 Y121.265 E64.17515
G0 F4200 X109.455 Y113.974
G0 X110.809 Y113.602
G1 F1800 X117.849 Y120.964 E64.68208
G1 X124.890 Y113.602 E65.18904
G1 X124.665 Y113.075 E65.21756
G1 X124.890 Y112.543 E65.24630
G1 X117.849 Y105.289 E65.74939
G1 X110.809 Y112.543 E66.25245
G1 X111.034 Y113.075 E66.28119
G1 X110.809 Y113.602 E66.30971
G0 F4200 X118.137 Y121.265
G1 F1800 X125.147 Y128.595 E66.81445
G1 X125.700 Y128.373 E66.84411
G1 X126.252 Y128.595 E66.87372
G1 X133.262 Y121.265 E67.37846
G1 X126.252 Y113.934 E67.88324
G1 X125.700 Y114.156 E67.91285
G1 X125.147 Y113.934 E67.94250
G1 X118.137 Y121.265 E68.44728
G0 F4200 X117.849 Y121.565
G1 F1800 X110.862 Y128.872 E68.95041
G1 X111.172 Y129.598 E68.98969
G1 X124.527 Y129.598 E69.65431
G1 X124.837 Y128.872 E69.69360
G1 X117.849 Y121.565 E70.19675
G0 F4200 X125.156 Y128.555
G0 X126.562 Y128.872
G1 F1800 X126.872 Y129.598 E70.23604
G1 X136.027 Y129.598 E70.69164
G1 X136.699 Y129.553 E70.72516
G1 X137.377 Y129.427 E70.75948
G1 X138.044 Y129.213 E70.79434
G1 X138.679 Y128.916 E70.82923
G1 X139.865 Y128.169 E70.89898
G1 X133.550 Y121.565 E71.35371
G1 X126.562 Y128.872 E71.85687
G0 F4200 X133.837 Y121.265
G1 F1800 X140.162 Y127.879 E72.31230
G1 X140.919 Y126.673 E72.38316
G1 X141.213 Y126.041 E72.41785
G1 X141.426 Y125.378 E72.45250
G1 X141.554 Y124.695 E72.48708
G1 X141.598 Y124.019 E72.52080
G1 X141.598 Y114.236 E73.00765
G1 X140.847 Y113.934 E73.04793
