;Generated with Cura_SteamEngine 15.01
M82
M190 S60
M104 S210
G28
G90
G1 F210 Z5
G32 S1
M109 S210
G90
G92 E0
;Layer count: 158
;LAYER:0
M107
G0 F4200 X54.809 Y50.122 Z0.300
;TYPE:SKIRT
G1 F1800 X56.283 Y48.804 E0.09840
G1 X57.641 Y48.213 E0.17211
G1 X59.031 Y47.960 E0.24242
G1 X71.735 Y47.956 E0.87464
G1 X104.570 Y47.987 E2.50869
G1 X106.402 Y48.035 E2.59989
G1 X108.814 Y49.641 E2.74410
G1 X110.296 Y51.811 E2.87487
G1 X110.540 Y53.659 E2.96763
G1 X110.538 Y62.155 E3.39044
G1 X110.540 Y99.481 E5.24799
G1 X110.245 Y101.062 E5.32803
G1 X109.583 Y102.334 E5.39939
G1 X108.361 Y103.722 E5.49142
G1 X106.820 Y104.624 E5.58028
G1 X106.431 Y104.704 E5.60004
G1 X106.380 Y104.726 E5.60281
G1 X105.073 Y105.017 E5.66944
G1 X92.848 Y105.017 E6.27782
G1 X58.684 Y105.045 E7.97801
G1 X56.883 Y104.464 E8.07219
G1 X55.618 Y103.689 E8.14602
G1 X54.303 Y102.212 E8.24443
G1 X53.713 Y100.860 E8.31784
G1 X53.460 Y99.469 E8.38820
G1 X53.461 Y90.655 E8.82683
G1 X53.455 Y53.177 E10.69195
G1 X54.039 Y51.378 E10.78607
G1 X54.809 Y50.122 E10.85939
G0 F4200 X113.101 Y54.357
G1 F1800 X113.301 Y54.157 E10.87346
G1 X113.301 Y53.947 E10.88392
G1 X113.701 Y53.549 E10.91200
G1 X113.701 Y52.147 E10.98177
G1 X116.505 Y50.751 E11.13765
G1 X116.694 Y50.561 E11.15098
G1 X119.202 Y49.301 E11.29066
G1 X137.915 Y49.301 E12.22192
G1 X170.155 Y49.517 E13.82640
G1 X174.399 Y53.751 E14.12474
G1 X174.399 Y54.157 E14.14494
G1 X174.599 Y54.357 E14.15902
G1 X174.599 Y75.843 E15.22828
G1 X174.399 Y76.043 E15.24235
G1 X174.399 Y83.957 E15.63620
G1 X174.599 Y84.157 E15.65027
G1 X174.599 Y105.643 E16.71953
G1 X174.399 Y105.843 E16.73361
G1 X174.399 Y107.540 E16.81806
G1 X173.799 Y107.841 E16.85147
G1 X173.799 Y110.299 E16.97379
G1 X173.599 Y110.299 E16.98374
G1 X173.599 Y110.460 E16.99176
G1 X137.315 Y110.699 E18.79749
G1 X120.271 Y110.699 E19.64569
G1 X117.183 Y109.926 E19.80411
G1 X113.501 Y106.244 E20.06324
G1 X113.501 Y106.051 E20.07285
G1 X113.101 Y105.653 E20.10093
G1 X113.101 Y83.957 E21.18064
G1 X113.301 Y83.757 E21.19472
G1 X113.301 Y76.243 E21.56865
G1 X113.101 Y76.043 E21.58273
G1 X113.101 Y54.357 E22.66194
G0 F4200 X121.148 Y113.589
G1 F1800 X124.883 Y113.589 E22.84782
G1 X128.777 Y113.586 E23.04160
G1 X167.234 Y113.585 E24.95544
G1 X168.993 Y113.963 E25.04497
G1 X170.676 Y115.042 E25.14446
G1 X172.289 Y116.964 E25.26933
G1 X172.727 Y119.109 E25.37828
G1 X172.727 Y122.848 E25.56435
G1 X172.730 Y126.738 E25.75794
G1 X172.731 Y165.195 E27.67177
G1 X172.353 Y166.954 E27.76131
G1 X171.274 Y168.637 E27.86080
G1 X169.358 Y170.245 E27.98528
G1 X167.215 Y170.689 E28.09419
G1 X163.472 Y170.689 E28.28046
G1 X159.578 Y170.692 E28.47425
G1 X121.121 Y170.692 E30.38808
G1 X119.362 Y170.314 E30.47762
G1 X117.679 Y169.235 E30.57711
G1 X116.071 Y167.319 E30.70159
G1 X115.627 Y165.176 E30.81050
G1 X115.627 Y161.429 E30.99697
G1 X115.624 Y157.539 E31.19056
G1 X115.624 Y119.082 E33.10439
G1 X116.002 Y117.323 E33.19393
G1 X117.081 Y115.640 E33.29342
G1 X119.003 Y114.027 E33.41829
G1 X121.148 Y113.589 E33.52724
G1 F2400 E32.52724
G0 F4200 X104.344 Y98.821
;TYPE:WALL-INNER
G1 F2400 E33.52724
G1 F1800 X59.657 Y98.848 E35.75111
G1 X59.651 Y54.156 E37.97522
G1 X71.732 Y54.152 E38.57644
G1 X104.344 Y54.183 E40.19939
G1 X104.344 Y98.821 E42.42082
G0 F4200 X104.743 Y98.944
G1 F1800 X104.716 Y99.090 E42.42821
G1 X104.653 Y99.161 E42.43294
G1 X104.604 Y99.182 E42.43559
G1 X104.433 Y99.220 E42.44431
G1 X59.594 Y99.247 E44.67574
G1 X59.357 Y99.171 E44.68813
G1 X59.282 Y99.086 E44.69377
G1 X59.257 Y98.948 E44.70075
G1 X59.252 Y54.096 E46.93283
G1 X59.330 Y53.855 E46.94544
G1 X59.412 Y53.782 E46.95090
G1 X59.552 Y53.757 E46.95798
G1 X104.484 Y53.784 E49.19404
G1 X104.581 Y53.787 E49.19887
G1 X104.663 Y53.841 E49.20376
G1 X104.730 Y53.939 E49.20966
G1 X104.743 Y98.944 E51.44936
G0 F4200 X104.725 Y99.564
;TYPE:WALL-OUTER
G1 F1800 X104.479 Y99.619 E51.46190
G1 X59.530 Y99.646 E53.69881
G1 X59.155 Y99.525 E53.71842
G1 X59.118 Y99.502 E53.72059
G1 X58.911 Y99.270 E53.73606
G1 X58.858 Y98.980 E53.75073
G1 X58.853 Y54.030 E55.98769
G1 X58.975 Y53.656 E56.00727
G1 X58.998 Y53.617 E56.00952
G1 X59.229 Y53.411 E56.02493
G1 X59.519 Y53.358 E56.03960
G1 X104.495 Y53.385 E58.27785
G1 X104.705 Y53.390 E58.28830
G1 X104.950 Y53.553 E58.30295
G1 X105.113 Y53.793 E58.31739
G1 X105.142 Y54.011 E58.32833
G1 X105.142 Y98.979 E60.56618
G1 X105.087 Y99.271 E60.58097
G1 X104.885 Y99.501 E60.59621
G1 X104.857 Y99.518 E60.59784
G1 X104.725 Y99.564 E60.60479
G0 F4200 X104.040 Y98.680
;TYPE:SKIN
G1 F1800 X59.790 Y54.430 E63.71906
G0 F4200 X59.790 Y54.994
G1 F1800 X103.476 Y98.680 E66.79364
G0 F4200 X102.913 Y98.681
G1 F1800 X59.790 Y55.558 E69.82859
G0 F4200 X59.790 Y56.123
G1 F1800 X102.348 Y98.681 E72.82378
G0 F4200 X101.785 Y98.682
G1 F1800 X59.790 Y56.687 E75.77935
G0 F4200 X59.790 Y57.251
G1 F1800 X101.220 Y98.682 E78.69519
G0 F4200 X100.656 Y98.682
G1 F1800 X59.790 Y57.815 E81.57133
G0 F4200 X59.790 Y58.380
G1 F1800 X100.093 Y98.683 E84.40782
G0 F4200 X104.203 Y98.279
G1 F1800 X60.220 Y54.296 E87.50330
G0 F4200 X60.785 Y54.296
G1 F1800 X104.203 Y97.715 E90.55905
G0 F4200 X104.203 Y97.150
G1 F1800 X61.349 Y54.297 E93.57504
G0 F4200 X61.914 Y54.297
G1 F1800 X104.203 Y96.586 E96.55129
G0 F4200 X104.203 Y96.022
G1 F1800 X62.479 Y54.298 E99.48779
G0 F4200 X63.043 Y54.298
G1 F1800 X104.203 Y95.458 E102.38459
G0 F4200 X104.203 Y94.893
G1 F1800 X63.608 Y54.298 E105.24162
G0 F4200 X64.172 Y54.298
G1 F1800 X104.203 Y94.329 E108.05897
G0 F4200 X104.203 Y93.765
G1 F1800 X64.737 Y54.299 E110.83655
G0 F4200 X65.302 Y54.299
G1 F1800 X104.203 Y93.200 E113.57436
G0 F4200 X104.203 Y92.636
G1 F1800 X65.866 Y54.300 E116.27244
G0 F4200 X66.431 Y54.300
G1 F1800 X104.203 Y92.072 E118.93080
G0 F4200 X104.203 Y91.508
G1 F1800 X66.996 Y54.300 E121.54943
G0 F4200 X67.560 Y54.300
G1 F1800 X104.203 Y90.943 E124.12833
G0 F4200 X104.203 Y90.379
G1 F1800 X68.125 Y54.301 E126.66746
G0 F4200 X68.689 Y54.301
G1 F1800 X104.203 Y89.815 E129.16690
G0 F4200 X104.203 Y89.251
G1 F1800 X69.254 Y54.302 E131.62658
G0 F4200 X69.819 Y54.302
G1 F1800 X104.203 Y88.686 E134.04649
G0 F4200 X104.203 Y88.122
G1 F1800 X70.383 Y54.302 E136.42671
G0 F4200 X70.948 Y54.302
G1 F1800 X104.203 Y87.558 E138.76720
G0 F4200 X104.203 Y86.993
G1 F1800 X71.513 Y54.303 E141.06789
G0 F4200 X72.077 Y54.303
G1 F1800 X104.203 Y86.429 E143.32888
G0 F4200 X104.203 Y85.865
G1 F1800 X72.641 Y54.303 E145.55018
G0 F4200 X73.206 Y54.304
G1 F1800 X104.203 Y85.301 E147.73172
G0 F4200 X104.203 Y84.736
G1 F1800 X73.771 Y54.304 E149.87350
G0 F4200 X74.336 Y54.305
G1 F1800 X104.203 Y84.172 E151.97551
G0 F4200 X104.203 Y83.608
G1 F1800 X74.900 Y54.305 E154.03782
G0 F4200 X75.465 Y54.305
G1 F1800 X104.203 Y83.044 E156.06041
G0 F4200 X104.203 Y82.479
G1 F1800 X76.029 Y54.305 E158.04327
G0 F4200 X76.594 Y54.306
G1 F1800 X104.203 Y81.915 E159.98636
G0 F4200 X104.203 Y81.351
G1 F1800 X77.158 Y54.306 E161.88976
G0 F4200 X77.723 Y54.307
G1 F1800 X104.203 Y80.786 E163.75336
G0 F4200 X104.203 Y80.222
G1 F1800 X78.288 Y54.307 E165.57724
G0 F4200 X78.853 Y54.307
G1 F1800 X104.203 Y79.658 E167.36138
G0 F4200 X104.203 Y79.094
G1 F1800 X79.417 Y54.307 E169.10583
G0 F4200 X79.982 Y54.308
G1 F1800 X104.203 Y78.529 E170.81048
G0 F4200 X104.203 Y77.965
G1 F1800 X80.546 Y54.308 E172.47543
G0 F4200 X81.111 Y54.309
G1 F1800 X104.203 Y77.401 E174.10063
G0 F4200 X104.203 Y76.837
G1 F1800 X81.675 Y54.309 E175.68613
G0 F4200 X82.240 Y54.310
G1 F1800 X104.203 Y76.272 E177.23182
G0 F4200 X104.203 Y75.708
G1 F1800 X82.805 Y54.310 E178.73779
G0 F4200 X83.370 Y54.310
G1 F1800 X104.203 Y75.144 E180.20404
G0 F4200 X104.203 Y74.579
G1 F1800 X83.934 Y54.310 E181.63055
G0 F4200 X84.499 Y54.311
G1 F1800 X104.203 Y74.015 E183.01730
G0 F4200 X104.203 Y73.451
G1 F1800 X85.063 Y54.311 E184.36435
G0 F4200 X85.628 Y54.312
G1 F1800 X104.203 Y72.887 E185.67164
G0 F4200 X104.203 Y72.322
G1 F1800 X86.192 Y54.312 E186.93920
G0 F4200 X86.757 Y54.312
G1 F1800 X104.203 Y71.758 E188.16703
G0 F4200 X104.203 Y71.194
G1 F1800 X87.322 Y54.312 E189.35514
G0 F4200 X87.887 Y54.313
G1 F1800 X104.203 Y70.630 E190.50348
G0 F4200 X104.203 Y70.065
G1 F1800 X88.451 Y54.313 E191.61209
G0 F4200 X89.016 Y54.314
G1 F1800 X104.203 Y69.501 E192.68093
G0 F4200 X104.203 Y68.937
G1 F1800 X89.580 Y54.314 E193.71008
G0 F4200 X90.144 Y54.314
G1 F1800 X104.203 Y68.372 E194.69951
G0 F4200 X104.203 Y67.808
G1 F1800 X90.709 Y54.314 E195.64920
G0 F4200 X91.274 Y54.314
G1 F1800 X104.203 Y67.244 E196.55917
G0 F4200 X104.203 Y66.680
G1 F1800 X91.839 Y54.315 E197.42937
G0 F4200 X92.403 Y54.315
G1 F1800 X104.203 Y66.115 E198.25984
G0 F4200 X104.203 Y65.551
G1 F1800 X92.968 Y54.316 E199.05055
G0 F4200 X93.532 Y54.316
G1 F1800 X104.203 Y64.987 E199.80156
G0 F4200 X104.203 Y64.423
G1 F1800 X94.097 Y54.317 E200.51281
G0 F4200 X94.661 Y54.317
G1 F1800 X104.203 Y63.858 E201.18434
G0 F4200 X104.203 Y63.294
G1 F1800 X95.226 Y54.317 E201.81613
G0 F4200 X95.791 Y54.317
G1 F1800 X104.203 Y62.730 E202.40819
G0 F4200 X104.203 Y62.165
G1 F1800 X96.356 Y54.318 E202.96046
G0 F4200 X96.920 Y54.318
G1 F1800 X104.203 Y61.601 E203.47303
G0 F4200 X104.203 Y61.037
G1 F1800 X97.485 Y54.319 E203.94583
G0 F4200 X98.049 Y54.319
G1 F1800 X104.203 Y60.473 E204.37894
G0 F4200 X104.203 Y59.908
G1 F1800 X98.614 Y54.319 E204.77229
G0 F4200 X99.178 Y54.319
G1 F1800 X104.203 Y59.344 E205.12595
G0 F4200 X104.203 Y58.780
G1 F1800 X99.743 Y54.320 E205.43984
G0 F4200 X100.308 Y54.320
G1 F1800 X104.203 Y58.216 E205.71400
G0 F4200 X104.203 Y57.651
G1 F1800 X100.873 Y54.321 E205.94836
G0 F4200 X101.437 Y54.321
G1 F1800 X104.203 Y57.087 E206.14303
G0 F4200 X104.203 Y56.523
G1 F1800 X102.002 Y54.322 E206.29793
G0 F4200 X102.566 Y54.322
G1 F1800 X104.203 Y55.959 E206.41314
G0 F4200 X104.203 Y55.394
G1 F1800 X103.131 Y54.322 E206.48859
G0 F4200 X103.695 Y54.322
G1 F1800 X104.203 Y54.830 E206.52434
G0 F4200 X99.528 Y98.683
G1 F1800 X59.790 Y58.944 E209.32110
G0 F4200 X59.790 Y59.509
G1 F1800 X98.965 Y98.683 E212.07816
G0 F4200 X98.400 Y98.683
G1 F1800 X59.790 Y60.073 E214.79550
G0 F4200 X59.790 Y60.637
G1 F1800 X97.837 Y98.684 E217.47321
G0 F4200 X97.273 Y98.684
G1 F1800 X59.790 Y61.202 E220.11119
G0 F4200 X59.790 Y61.766
G1 F1800 X96.709 Y98.685 E222.70951
G0 F4200 X96.145 Y98.685
G1 F1800 X59.790 Y62.330 E225.26814
G0 F4200 X59.790 Y62.895
G1 F1800 X95.581 Y98.685 E227.78704
G0 F4200 X95.017 Y98.685
G1 F1800 X59.790 Y63.459 E230.26625
G0 F4200 X59.790 Y64.023
G1 F1800 X94.453 Y98.686 E232.70579
G0 F4200 X93.889 Y98.686
G1 F1800 X59.791 Y64.588 E235.10558
G0 F4200 X59.791 Y65.152
G1 F1800 X93.326 Y98.687 E237.46574
G0 F4200 X92.761 Y98.687
G1 F1800 X59.791 Y65.717 E239.78613
G0 F4200 X59.791 Y66.281
G1 F1800 X92.198 Y98.688 E242.06691
G0 F4200 X91.633 Y98.688
G1 F1800 X59.791 Y66.845 E244.30795
G0 F4200 X59.791 Y67.409
G1 F1800 X91.069 Y98.688 E246.50930
G0 F4200 X90.506 Y98.688
G1 F1800 X59.791 Y67.974 E248.67096
G0 F4200 X59.791 Y68.538
G1 F1800 X89.941 Y98.688 E250.79288
G0 F4200 X89.378 Y98.689
G1 F1800 X59.792 Y69.103 E252.87512
G0 F4200 X59.792 Y69.667
G1 F1800 X88.814 Y98.689 E254.91766
G0 F4200 X88.250 Y98.690
G1 F1800 X59.792 Y70.231 E256.92054
G0 F4200 X59.792 Y70.796
G1 F1800 X87.686 Y98.690 E258.88369
G0 F4200 X87.122 Y98.690
G1 F1800 X59.792 Y71.360 E260.80715
G0 F4200 X59.792 Y71.924
G1 F1800 X86.558 Y98.690 E262.69091
G0 F4200 X85.994 Y98.691
G1 F1800 X59.792 Y72.489 E264.53498
G0 F4200 X59.792 Y73.053
G1 F1800 X85.430 Y98.691 E266.33936
G0 F4200 X84.866 Y98.692
G1 F1800 X59.792 Y73.617 E268.10408
G0 F4200 X59.792 Y74.182
G1 F1800 X84.302 Y98.692 E269.82907
G0 F4200 X83.739 Y98.693
G1 F1800 X59.792 Y74.746 E271.51444
G0 F4200 X59.792 Y75.311
G1 F1800 X83.174 Y98.693 E273.16004
G0 F4200 X82.610 Y98.693
G1 F1800 X59.792 Y75.875 E274.76595
G0 F4200 X59.792 Y76.439
G1 F1800 X82.047 Y98.693 E276.33220
G0 F4200 X81.482 Y98.693
G1 F1800 X59.792 Y77.003 E277.85872
G0 F4200 X59.792 Y77.568
G1 F1800 X80.919 Y98.694 E279.34558
G0 F4200 X80.354 Y98.694
G1 F1800 X59.792 Y78.132 E280.79271
G0 F4200 X59.792 Y78.696
G1 F1800 X79.791 Y98.695 E282.20022
G0 F4200 X79.227 Y98.695
G1 F1800 X59.793 Y79.261 E283.56797
G0 F4200 X59.793 Y79.825
G1 F1800 X78.663 Y98.695 E284.89602
G0 F4200 X78.099 Y98.695
G1 F1800 X59.793 Y80.390 E286.18434
G0 F4200 X59.793 Y80.954
G1 F1800 X77.535 Y98.696 E287.43301
G0 F4200 X76.971 Y98.696
G1 F1800 X59.793 Y81.518 E288.64198
G0 F4200 X59.793 Y82.083
G1 F1800 X76.407 Y98.697 E289.81125
G0 F4200 X75.843 Y98.697
G1 F1800 X59.793 Y82.647 E290.94084
G0 F4200 X59.793 Y83.211
G1 F1800 X75.280 Y98.697 E292.03076
G0 F4200 X74.715 Y98.697
G1 F1800 X59.793 Y83.775 E293.08096
G0 F4200 X59.794 Y84.340
G1 F1800 X74.152 Y98.698 E294.09146
G0 F4200 X73.587 Y98.698
G1 F1800 X59.794 Y84.905 E295.06220
G0 F4200 X59.794 Y85.469
G1 F1800 X73.023 Y98.698 E295.99324
G0 F4200 X72.460 Y98.699
G1 F1800 X59.794 Y86.033 E296.88466
G0 F4200 X59.794 Y86.597
G1 F1800 X71.895 Y98.699 E297.73635
G0 F4200 X71.332 Y98.700
G1 F1800 X59.794 Y87.162 E298.54839
G0 F4200 X59.794 Y87.726
G1 F1800 X70.767 Y98.700 E299.32069
G0 F4200 X70.204 Y98.700
G1 F1800 X59.794 Y88.290 E300.05334
G0 F4200 X59.795 Y88.855
G1 F1800 X69.640 Y98.700 E300.74622
G0 F4200 X69.076 Y98.701
G1 F1800 X59.795 Y89.420 E301.39940
G0 F4200 X59.795 Y89.984
G1 F1800 X68.512 Y98.701 E302.01290
G0 F4200 X67.948 Y98.702
G1 F1800 X59.795 Y90.548 E302.58673
G0 F4200 X59.795 Y91.112
G1 F1800 X67.384 Y98.702 E303.12088
G0 F4200 X66.820 Y98.702
G1 F1800 X59.795 Y91.677 E303.61529
G0 F4200 X59.795 Y92.241
G1 F1800 X66.256 Y98.702 E304.07001
G0 F4200 X65.693 Y98.703
G1 F1800 X59.795 Y92.805 E304.48510
G0 F4200 X59.795 Y93.369
G1 F1800 X65.128 Y98.703 E304.86047
G0 F4200 X64.565 Y98.704
G1 F1800 X59.795 Y93.934 E305.19618
G0 F4200 X59.795 Y94.499
G1 F1800 X64.000 Y98.704 E305.49212
G0 F4200 X63.436 Y98.704
G1 F1800 X59.795 Y95.063 E305.74837
G0 F4200 X59.795 Y95.627
G1 F1800 X62.873 Y98.705 E305.96500
G0 F4200 X62.308 Y98.705
G1 F1800 X59.795 Y96.191 E306.14189
G0 F4200 X59.795 Y96.756
G1 F1800 X61.745 Y98.705 E306.27910
G0 F4200 X61.181 Y98.705
G1 F1800 X59.795 Y97.320 E306.37661
G0 F4200 X59.795 Y97.884
G1 F1800 X60.617 Y98.706 E306.43446
G0 F4200 X60.053 Y98.706
G1 F1800 X59.795 Y98.449 E306.45258
G1 F2400 E305.45258
G0 F4200 X121.859 Y101.560
;TYPE:WALL-OUTER
G1 F2400 E306.45258
G1 F1800 X121.858 Y58.576 E308.59170
G1 X121.881 Y58.408 E308.60014
G1 X121.942 Y58.260 E308.60811
G1 X122.038 Y58.135 E308.61595
G1 X122.163 Y58.039 E308.62379
G1 X122.311 Y57.979 E308.63174
G1 X122.478 Y57.956 E308.64013
G1 X165.462 Y57.955 E310.77925
G1 X165.630 Y57.978 E310.78769
G1 X165.778 Y58.039 E310.79566
G1 X165.903 Y58.135 E310.80350
G1 X165.999 Y58.260 E310.81134
G1 X166.059 Y58.408 E310.81929
G1 X166.082 Y58.575 E310.82768
G1 X166.083 Y101.559 E312.96680
G1 X166.060 Y101.727 E312.97524
G1 X165.999 Y101.875 E312.98320
G1 X165.903 Y102.000 E312.99105
G1 X165.778 Y102.096 E312.99889
G1 X165.630 Y102.156 E313.00684
G1 X165.463 Y102.179 E313.01523
G1 X122.479 Y102.180 E315.15435
G1 X122.311 Y102.157 E315.16279
G1 X122.163 Y102.096 E315.17075
G1 X122.038 Y102.000 E315.17860
G1 X121.942 Y101.875 E315.18644
G1 X121.882 Y101.727 E315.19439
G1 X121.859 Y101.560 E315.20278
G0 F4200 X122.019 Y101.593
G1 F1800 X122.052 Y101.749 E315.21071
G1 X122.148 Y101.893 E315.21932
G1 X122.302 Y101.991 E315.22841
G1 X122.446 Y102.020 E315.23572
G1 X165.496 Y102.019 E317.37812
G1 X165.652 Y101.986 E317.38606
G1 X165.796 Y101.890 E317.39467
G1 X165.894 Y101.736 E317.40375
G1 X165.923 Y101.592 E317.41106
G1 X165.922 Y58.542 E319.55347
G1 X165.889 Y58.386 E319.56140
