;Generated with Cura_SteamEngine 15.01
; Default start code
G28 ; Home extruder
G1 Z15 F100
M107 ; Turn off fan
G90 ; Absolute positioning
M82 ; Extruder in absolute mode
M190 S60
; Activate all used extruder
M104 T0 S210
G92 E0 ; Reset extruder position
; Wait for all used extruders to reach temperature
M109 T0 S210
;Layer count: 106
;LAYER:0
M107
G0 F9000 X94.060 Y87.241 Z0.300
;TYPE:SKIRT
G1 F1800 X95.200 Y86.100 E0.08047
G1 X95.490 Y85.808 E0.10100
G1 X95.701 Y85.632 E0.11471
G1 X96.058 Y85.357 E0.13719
G1 X96.693 Y85.035 E0.17271
G1 X97.584 Y84.756 E0.21929
G1 X123.404 Y84.749 E1.50746
G1 X124.502 Y84.999 E1.56364
G1 X125.383 Y85.511 E1.61448
G1 X125.980 Y86.060 E1.65494
G1 X126.449 Y86.688 E1.69404
G1 X126.769 Y87.363 E1.73131
G1 X126.998 Y88.259 E1.77745
G1 X127.000 Y121.417 E3.43171
G1 X126.968 Y121.756 E3.44870
G1 X126.846 Y122.494 E3.48602
G1 X126.289 Y123.584 E3.54708
G1 X125.730 Y124.186 E3.58807
G1 X125.072 Y124.714 E3.63016
G1 X123.797 Y125.241 E3.69899
G1 X96.837 Y125.250 E5.04403
G1 X96.496 Y125.219 E5.06111
G1 X95.840 Y125.110 E5.09429
G1 X94.833 Y124.654 E5.14944
G1 X94.115 Y124.043 E5.19648
G1 X93.535 Y123.322 E5.24264
G1 X93.008 Y122.047 E5.31147
G1 X92.999 Y89.677 E6.92642
G1 X93.147 Y88.733 E6.97409
G1 X93.635 Y87.747 E7.02897
G1 X94.060 Y87.241 E7.06194
G0 F9000 X94.355 Y87.512
G1 F1800 X95.483 Y86.382 E7.14160
G1 X95.760 Y86.104 E7.16118
G1 X95.952 Y85.944 E7.17365
G1 X96.272 Y85.697 E7.19381
G1 X96.844 Y85.406 E7.22583
G1 X97.645 Y85.156 E7.26770
G1 X123.359 Y85.149 E8.55057
G1 X124.354 Y85.375 E8.60148
G1 X125.144 Y85.835 E8.64709
G1 X125.682 Y86.329 E8.68353
G1 X126.104 Y86.896 E8.71879
G1 X126.391 Y87.500 E8.75215
G1 X126.598 Y88.310 E8.79386
G1 X126.600 Y121.398 E10.44463
G1 X126.572 Y121.705 E10.46001
G1 X126.461 Y122.367 E10.49350
G1 X125.958 Y123.352 E10.54867
G1 X125.456 Y123.892 E10.58546
G1 X124.867 Y124.366 E10.62318
G1 X123.717 Y124.841 E10.68525
G1 X96.855 Y124.850 E12.02540
G1 X96.548 Y124.822 E12.04078
G1 X95.957 Y124.724 E12.07067
G1 X95.050 Y124.313 E12.12035
G1 X94.403 Y123.763 E12.16272
G1 X93.883 Y123.117 E12.20409
G1 X93.408 Y121.967 E12.26616
G1 X93.399 Y89.708 E13.87557
G1 X93.533 Y88.855 E13.91865
G1 X93.972 Y87.967 E13.96807
G1 X94.355 Y87.512 E13.99774
G1 F2400 E9.99774
G0 F9000 X98.172 Y89.068
;TYPE:WALL-INNER
G1 F2400 E13.99774
G1 F1800 X98.283 Y88.956 E14.00561
G1 X122.798 Y88.949 E15.22867
G1 X122.800 Y121.041 E16.82974
G1 X97.208 Y121.050 E18.10653
G1 X97.199 Y90.041 E19.65358
G1 X98.172 Y89.068 E19.72223
G0 F9000 X98.052 Y88.620
;TYPE:WALL-OUTER
G1 F1800 X98.095 Y88.584 E19.72503
G1 X98.165 Y88.556 E19.72879
G1 X122.978 Y88.549 E20.96672
G1 X123.091 Y88.575 E20.97250
G1 X123.146 Y88.616 E20.97592
G1 X123.178 Y88.661 E20.97868
G1 X123.198 Y88.740 E20.98274
G1 X123.200 Y121.242 E22.60427
G1 X123.194 Y121.289 E22.60664
G1 X123.145 Y121.386 E22.61206
G1 X123.117 Y121.410 E22.61390
G1 X123.042 Y121.441 E22.61795
G1 X97.007 Y121.450 E23.91684
G1 X96.956 Y121.443 E23.91941
G1 X96.885 Y121.411 E23.92329
G1 X96.839 Y121.367 E23.92647
G1 X96.808 Y121.292 E23.93052
G1 X96.799 Y89.975 E25.49293
G1 X96.811 Y89.896 E25.49692
G1 X96.838 Y89.842 E25.49993
G1 X98.052 Y88.620 E25.58587
G0 F9000 X98.429 Y89.096
;TYPE:SKIN
G1 F1800 X122.658 Y113.325 E27.29535
G0 F9000 X122.658 Y113.890
G1 F1800 X98.101 Y89.333 E29.02798
G0 F9000 X97.819 Y89.616
G1 F1800 X122.658 Y114.456 E30.78054
G0 F9000 X122.658 Y115.022
G1 F1800 X97.536 Y89.899 E32.55307
G0 F9000 X97.338 Y90.267
G1 F1800 X122.658 Y115.587 E34.33953
G0 F9000 X122.658 Y116.153
G1 F1800 X97.338 Y90.832 E36.12603
G0 F9000 X97.338 Y91.398
G1 F1800 X122.658 Y116.719 E37.91253
G0 F9000 X122.658 Y117.284
G1 F1800 X97.338 Y91.964 E39.69899
G0 F9000 X97.338 Y92.530
G1 F1800 X122.658 Y117.850 E41.48545
G0 F9000 X122.658 Y118.416
G1 F1800 X97.338 Y93.096 E43.27192
G0 F9000 X97.338 Y93.661
G1 F1800 X122.658 Y118.982 E45.05842
G0 F9000 X122.658 Y119.547
G1 F1800 X97.338 Y94.227 E46.84488
G0 F9000 X97.339 Y94.794
G1 F1800 X122.658 Y120.113 E48.63127
G0 F9000 X122.658 Y120.679
G1 F1800 X97.339 Y95.359 E50.41770
G0 F9000 X97.339 Y95.925
G1 F1800 X122.315 Y120.901 E52.17989
G0 F9000 X121.749 Y120.901
G1 F1800 X97.339 Y96.491 E53.90215
G0 F9000 X97.340 Y97.057
G1 F1800 X121.183 Y120.901 E55.58443
G0 F9000 X120.618 Y120.901
G1 F1800 X97.340 Y97.623 E57.22682
G0 F9000 X97.340 Y98.188
G1 F1800 X120.053 Y120.901 E58.82935
G0 F9000 X119.487 Y120.901
G1 F1800 X97.340 Y98.754 E60.39194
G0 F9000 X97.341 Y99.320
G1 F1800 X118.921 Y120.901 E61.91456
G0 F9000 X118.356 Y120.901
G1 F1800 X97.341 Y99.886 E63.39728
G0 F9000 X98.995 Y89.096
G1 F1800 X122.658 Y112.759 E65.06683
G0 F9000 X122.658 Y112.193
G1 F1800 X99.561 Y89.096 E66.69645
G0 F9000 X100.127 Y89.096
G1 F1800 X122.658 Y111.628 E68.28617
G0 F9000 X122.658 Y111.062
G1 F1800 X100.692 Y89.096 E69.83599
G0 F9000 X101.257 Y89.095
G1 F1800 X122.658 Y110.496 E71.34595
G0 F9000 X122.658 Y109.930
G1 F1800 X101.823 Y89.095 E72.81597
G0 F9000 X102.389 Y89.095
G1 F1800 X122.658 Y109.364 E74.24606
G0 F9000 X122.658 Y108.798
G1 F1800 X102.954 Y89.095 E75.63624
G0 F9000 X103.519 Y89.094
G1 F1800 X122.658 Y108.233 E76.98660
G0 F9000 X122.658 Y107.667
G1 F1800 X104.085 Y89.094 E78.29703
G0 F9000 X104.651 Y89.094
G1 F1800 X122.658 Y107.101 E79.56752
G0 F9000 X122.658 Y106.536
G1 F1800 X105.216 Y89.094 E80.79815
G0 F9000 X105.781 Y89.094
G1 F1800 X122.658 Y105.970 E81.98888
G0 F9000 X122.658 Y105.404
G1 F1800 X106.347 Y89.094 E83.13967
G0 F9000 X106.913 Y89.094
G1 F1800 X122.658 Y104.839 E84.25057
G0 F9000 X122.658 Y104.273
G1 F1800 X107.478 Y89.094 E85.32156
G0 F9000 X108.044 Y89.094
G1 F1800 X122.658 Y103.707 E86.35262
G0 F9000 X122.658 Y103.142
G1 F1800 X108.609 Y89.093 E87.34386
G0 F9000 X109.175 Y89.093
G1 F1800 X122.658 Y102.576 E88.29515
G0 F9000 X122.658 Y102.010
G1 F1800 X109.740 Y89.093 E89.20655
G0 F9000 X110.306 Y89.093
G1 F1800 X122.658 Y101.445 E90.07805
G0 F9000 X122.658 Y100.879
G1 F1800 X110.871 Y89.092 E90.90969
G0 F9000 X111.437 Y89.092
G1 F1800 X122.658 Y100.313 E91.70139
G0 F9000 X122.658 Y99.748
G1 F1800 X112.002 Y89.092 E92.45323
G0 F9000 X112.568 Y89.092
G1 F1800 X122.657 Y99.181 E93.16506
G0 F9000 X122.657 Y98.615
G1 F1800 X113.133 Y89.091 E93.83703
G0 F9000 X113.699 Y89.091
G1 F1800 X122.657 Y98.050 E94.46910
G0 F9000 X122.657 Y97.484
G1 F1800 X114.264 Y89.091 E95.06128
G0 F9000 X114.830 Y89.091
G1 F1800 X122.657 Y96.918 E95.61351
G0 F9000 X122.657 Y96.353
G1 F1800 X115.395 Y89.091 E96.12589
G0 F9000 X115.961 Y89.091
G1 F1800 X122.657 Y95.787 E96.59832
G0 F9000 X122.657 Y95.221
G1 F1800 X116.526 Y89.091 E97.03086
G0 F9000 X117.092 Y89.091
G1 F1800 X122.657 Y94.656 E97.42351
G0 F9000 X122.657 Y94.090
G1 F1800 X117.658 Y89.091 E97.77621
G0 F9000 X118.223 Y89.090
G1 F1800 X122.657 Y93.524 E98.08905
G0 F9000 X122.657 Y92.959
G1 F1800 X118.788 Y89.090 E98.36203
G0 F9000 X119.354 Y89.090
G1 F1800 X122.657 Y92.393 E98.59508
G0 F9000 X122.657 Y91.827
G1 F1800 X119.920 Y89.090 E98.78819
G0 F9000 X120.485 Y89.089
G1 F1800 X122.657 Y91.262 E98.94147
G0 F9000 X122.657 Y90.696
G1 F1800 X121.051 Y89.089 E99.05482
G0 F9000 X121.616 Y89.089
G1 F1800 X122.657 Y90.130 E99.12827
G0 F9000 X122.657 Y89.564
G1 F1800 X122.182 Y89.089 E99.16178
G0 F9000 X97.341 Y100.452
G1 F1800 X117.791 Y120.902 E100.60464
G0 F9000 X117.225 Y120.902
G1 F1800 X97.341 Y101.017 E102.00760
G0 F9000 X97.341 Y101.584
G1 F1800 X116.659 Y120.902 E103.37058
G0 F9000 X116.094 Y120.902
G1 F1800 X97.341 Y102.150 E104.69368
G0 F9000 X97.341 Y102.715
G1 F1800 X115.529 Y120.903 E105.97694
G0 F9000 X114.963 Y120.903
G1 F1800 X97.341 Y103.281 E107.22026
G0 F9000 X97.342 Y103.847
G1 F1800 X114.397 Y120.903 E108.42362
G0 F9000 X113.832 Y120.903
G1 F1800 X97.342 Y104.413 E109.58708
G0 F9000 X97.342 Y104.979
G1 F1800 X113.267 Y120.903 E110.71064
G0 F9000 X112.701 Y120.903
G1 F1800 X97.343 Y105.545 E111.79423
G0 F9000 X97.343 Y106.111
G1 F1800 X112.135 Y120.903 E112.83789
G0 F9000 X111.570 Y120.903
G1 F1800 X97.343 Y106.676 E113.84168
G0 F9000 X97.343 Y107.242
G1 F1800 X111.005 Y120.904 E114.80560
G0 F9000 X110.439 Y120.904
G1 F1800 X97.343 Y107.809 E115.72956
G0 F9000 X97.343 Y108.374
G1 F1800 X109.873 Y120.904 E116.61362
G0 F9000 X109.308 Y120.904
G1 F1800 X97.343 Y108.940 E117.45778
G0 F9000 X97.343 Y109.506
G1 F1800 X108.743 Y120.905 E118.26208
G0 F9000 X108.177 Y120.905
G1 F1800 X97.344 Y110.072 E119.02641
G0 F9000 X97.344 Y110.638
G1 F1800 X107.611 Y120.905 E119.75080
G0 F9000 X107.046 Y120.905
G1 F1800 X97.344 Y111.203 E120.43533
G0 F9000 X97.344 Y111.769
G1 F1800 X106.481 Y120.906 E121.07999
G0 F9000 X105.915 Y120.906
G1 F1800 X97.345 Y112.335 E121.68469
G0 F9000 X97.345 Y112.901
G1 F1800 X105.349 Y120.906 E122.24945
G0 F9000 X104.784 Y120.906
G1 F1800 X97.345 Y113.467 E122.77431
G0 F9000 X97.345 Y114.032
G1 F1800 X104.219 Y120.906 E123.25931
G0 F9000 X103.653 Y120.906
G1 F1800 X97.345 Y114.599 E123.70433
G0 F9000 X97.345 Y115.165
G1 F1800 X103.087 Y120.906 E124.10943
G0 F9000 X102.521 Y120.906
G1 F1800 X97.345 Y115.730 E124.47462
G0 F9000 X97.345 Y116.296
G1 F1800 X101.956 Y120.906 E124.79992
G0 F9000 X101.391 Y120.907
G1 F1800 X97.346 Y116.862 E125.08531
G0 F9000 X97.346 Y117.428
G1 F1800 X100.825 Y120.907 E125.33078
G0 F9000 X100.259 Y120.907
G1 F1800 X97.346 Y117.994 E125.53631
G0 F9000 X97.346 Y118.559
G1 F1800 X99.694 Y120.907 E125.70197
G0 F9000 X99.129 Y120.908
G1 F1800 X97.347 Y119.126 E125.82770
G0 F9000 X97.347 Y119.691
G1 F1800 X98.563 Y120.908 E125.91353
G0 F9000 X97.997 Y120.908
G1 F1800 X97.347 Y120.257 E125.95943
G0 F9000 X97.347 Y120.823
G1 F1800 X97.432 Y120.908 E125.96542
;LAYER:1
M106 S63
G0 F9000 X97.110 Y121.140 Z0.500
;TYPE:WALL-INNER
G1 F2220 X97.109 Y90.016 E127.00061
G1 X97.112 Y89.999 E127.00119
G1 X98.247 Y88.864 E127.05457
G1 X98.256 Y88.859 E127.05491
G1 X122.890 Y88.859 E127.87425
G1 X122.890 Y121.139 E128.94788
G1 X97.110 Y121.140 E129.80533
G0 F9000 X97.013 Y121.540
;TYPE:WALL-OUTER
G1 F1980 X96.913 Y121.524 E129.80870
G1 X96.803 Y121.460 E129.81293
G1 X96.782 Y121.441 E129.81387
G1 X96.730 Y121.355 E129.81721
G1 X96.710 Y121.261 E129.82041
G1 X96.709 Y89.979 E130.86085
G1 X96.740 Y89.829 E130.86595
G1 X96.803 Y89.743 E130.86949
G1 X97.994 Y88.551 E130.92554
G1 X98.006 Y88.540 E130.92608
G1 X98.131 Y88.472 E130.93081
G1 X98.183 Y88.461 E130.93258
G1 X122.978 Y88.459 E131.75727
G1 X123.135 Y88.494 E131.76262
G1 X123.182 Y88.527 E131.76453
G1 X123.262 Y88.638 E131.76908
G1 X123.289 Y88.732 E131.77233
G1 X123.290 Y121.236 E132.85342
G1 X123.274 Y121.335 E132.85675
G1 X123.210 Y121.446 E132.86101
G1 X123.194 Y121.463 E132.86179
G1 X123.096 Y121.522 E132.86560
G1 X123.017 Y121.539 E132.86828
G1 X97.013 Y121.540 E133.73318
G0 F9000 X97.250 Y120.821
;TYPE:SKIN
G1 F1980 X122.749 Y95.322 E134.93257
G0 F9000 X122.749 Y95.887
G1 F1980 X97.638 Y120.999 E136.11374
G0 F9000 X98.203 Y120.999
G1 F1980 X122.749 Y96.453 E137.26831
G0 F9000 X122.749 Y97.019
G1 F1980 X98.769 Y120.999 E138.39626
G0 F9000 X99.335 Y120.999
G1 F1980 X122.749 Y97.584 E139.49760
G0 F9000 X122.749 Y98.150
G1 F1980 X99.900 Y120.999 E140.57235
G0 F9000 X97.250 Y120.255
G1 F1980 X122.749 Y94.756 E141.77174
G0 F9000 X122.749 Y94.190
G1 F1980 X97.250 Y119.689 E142.97114
G0 F9000 X97.250 Y119.124
G1 F1980 X122.749 Y93.625 E144.17053
G0 F9000 X122.749 Y93.059
G1 F1980 X97.250 Y118.558 E145.36993
G0 F9000 X97.250 Y117.992
G1 F1980 X122.749 Y92.493 E146.56932
G0 F9000 X122.749 Y91.928
G1 F1980 X97.250 Y117.427 E147.76872
G0 F9000 X97.250 Y116.861
G1 F1980 X122.749 Y91.362 E148.96811
G0 F9000 X122.749 Y90.796
G1 F1980 X97.250 Y116.295 E150.16751
G0 F9000 X97.250 Y115.730
G1 F1980 X122.749 Y90.231 E151.36690
G0 F9000 X122.749 Y89.665
G1 F1980 X97.250 Y115.164 E152.56630
G0 F9000 X97.250 Y114.598
G1 F1980 X122.749 Y89.099 E153.76569
G0 F9000 X122.284 Y88.998
G1 F1980 X97.250 Y114.032 E154.94322
G0 F9000 X97.250 Y113.467
G1 F1980 X121.719 Y88.998 E156.09416
G0 F9000 X121.153 Y88.998
G1 F1980 X97.250 Y112.901 E157.21849
G0 F9000 X97.250 Y112.335
G1 F1980 X120.587 Y88.998 E158.31619
G0 F9000 X120.022 Y88.998
G1 F1980 X97.250 Y111.770 E159.38731
G0 F9000 X97.250 Y111.204
G1 F1980 X119.456 Y88.998 E160.43181
G0 F9000 X118.890 Y88.998
G1 F1980 X97.249 Y110.639 E161.44974
G0 F9000 X97.249 Y110.073
G1 F1980 X118.325 Y88.998 E162.44107
G0 F9000 X117.759 Y88.998
G1 F1980 X97.249 Y109.508 E163.40579
G0 F9000 X97.249 Y108.942
G1 F1980 X117.193 Y88.998 E164.34390
G0 F9000 X116.628 Y88.998
G1 F1980 X97.249 Y108.376 E165.25540
G0 F9000 X97.249 Y107.811
G1 F1980 X116.062 Y88.998 E166.14031
G0 F9000 X115.496 Y88.998
G1 F1980 X97.249 Y107.245 E166.99859
G0 F9000 X97.249 Y106.679
G1 F1980 X114.931 Y88.998 E167.83028
G0 F9000 X114.365 Y88.998
G1 F1980 X97.249 Y106.114 E168.63536
G0 F9000 X97.249 Y105.548
G1 F1980 X113.799 Y88.998 E169.41382
G0 F9000 X113.233 Y88.998
G1 F1980 X97.249 Y104.982 E170.16566
G0 F9000 X97.249 Y104.417
G1 F1980 X112.668 Y88.998 E170.89092
G0 F9000 X112.102 Y88.998
G1 F1980 X97.249 Y103.851 E171.58956
G0 F9000 X97.249 Y103.285
G1 F1980 X111.536 Y88.998 E172.26158
G0 F9000 X110.971 Y88.998
G1 F1980 X97.249 Y102.719 E172.90700
G0 F9000 X97.249 Y102.154
G1 F1980 X110.405 Y88.998 E173.52581
G0 F9000 X109.839 Y88.998
G1 F1980 X97.249 Y101.588 E174.11801
G0 F9000 X97.249 Y101.022
G1 F1980 X109.274 Y88.998 E174.68361
G0 F9000 X108.708 Y88.998
G1 F1980 X97.249 Y100.457 E175.22260
G0 F9000 X97.249 Y99.892
G1 F1980 X108.142 Y88.998 E175.73500
G0 F9000 X107.577 Y88.998
G1 F1980 X97.249 Y99.326 E176.22080
G0 F9000 X97.249 Y98.760
G1 F1980 X107.011 Y88.998 E176.67997
G0 F9000 X106.445 Y88.998
G1 F1980 X97.249 Y98.195 E177.11255
G0 F9000 X97.249 Y97.629
G1 F1980 X105.880 Y88.998 E177.51852
G0 F9000 X105.314 Y88.998
G1 F1980 X97.249 Y97.063 E177.89787
G0 F9000 X97.249 Y96.498
G1 F1980 X104.748 Y88.998 E178.25063
G0 F9000 X104.182 Y88.998
G1 F1980 X97.249 Y95.932 E178.57676
G0 F9000 X97.249 Y95.366
G1 F1980 X103.617 Y88.998 E178.87629
G0 F9000 X103.051 Y88.998
G1 F1980 X97.249 Y94.801 E179.14922
G0 F9000 X97.249 Y94.235
G1 F1980 X102.485 Y88.998 E179.39553
G0 F9000 X101.920 Y88.998
G1 F1980 X97.249 Y93.669 E179.61524
G0 F9000 X97.249 Y93.104
G1 F1980 X101.354 Y88.998 E179.80835
G0 F9000 X100.788 Y88.998
G1 F1980 X97.249 Y92.538 E179.97484
G0 F9000 X97.249 Y91.972
G1 F1980 X100.223 Y88.998 E180.11472
G0 F9000 X99.657 Y88.998
G1 F1980 X97.249 Y91.406 E180.22799
G0 F9000 X97.249 Y90.841
G1 F1980 X99.091 Y88.998 E180.31466
G0 F9000 X98.526 Y88.998
G1 F1980 X97.249 Y90.275 E180.37472
G0 F9000 X122.749 Y98.716
G1 F1980 X100.466 Y120.999 E181.42285
G0 F9000 X101.032 Y120.999
G1 F1980 X122.749 Y99.282 E182.44435
G0 F9000 X122.749 Y99.847
G1 F1980 X101.597 Y120.999 E183.43927
G0 F9000 X102.163 Y120.999
G1 F1980 X122.749 Y100.413 E184.40757
G0 F9000 X122.749 Y100.979
G1 F1980 X102.729 Y120.999 E185.34925
G0 F9000 X103.294 Y120.999
G1 F1980 X122.749 Y101.544 E186.26436
G0 F9000 X122.749 Y102.110
G1 F1980 X103.860 Y120.999 E187.15284
G0 F9000 X104.426 Y120.999
G1 F1980 X122.749 Y102.676 E188.01470
G0 F9000 X122.749 Y103.241
G1 F1980 X104.991 Y120.999 E188.84998
G0 F9000 X105.557 Y120.999
G1 F1980 X122.749 Y103.807 E189.65864
G0 F9000 X122.749 Y104.373
G1 F1980 X106.123 Y120.999 E190.44067
G0 F9000 X106.688 Y120.999
G1 F1980 X122.749 Y104.938 E191.19613
G0 F9000 X122.749 Y105.504
G1 F1980 X107.254 Y120.999 E191.92497
G0 F9000 X107.820 Y120.999
G1 F1980 X122.749 Y106.070 E192.62718
G0 F9000 X122.749 Y106.635
G1 F1980 X108.386 Y120.999 E193.30280
G0 F9000 X108.951 Y120.999
G1 F1980 X122.749 Y107.201 E193.95181
G0 F9000 X122.749 Y107.767
