;Generated with Cura_SteamEngine 15.01
; Default start code
G28 ; Home extruder
G1 Z15 F100
M107 ; Turn off fan
G90 ; Absolute positioning
M82 ; Extruder in absolute mode
M190 S50
; Activate all used extruder
M104 T0 S210
G92 E0 ; Reset extruder position
; Wait for all used extruders to reach temperature
M109 T0 S210
;Layer count: 47
;LAYER:0
M107
G0 F9000 X39.368 Y14.102 Z0.300
G0 X40.399 Y13.071
;TYPE:SKIRT
G1 F1800 X40.399 Y13.070 E0.00005
G1 X42.022 Y11.446 E0.11460
G1 X43.090 Y10.374 E0.19009
G1 X44.307 Y9.970 E0.25407
G1 X44.352 Y9.784 E0.26361
G1 X49.380 Y9.784 E0.51446
G1 X49.440 Y10.044 E0.52777
G1 X51.106 Y10.877 E0.62070
G1 X51.307 Y11.078 E0.63488
G1 X52.105 Y11.475 E0.67935
G1 X52.308 Y11.678 E0.69367
G1 X53.108 Y12.077 E0.73827
G1 X53.280 Y12.249 E0.75041
G1 X62.247 Y12.748 E1.19847
G1 X62.038 Y13.104 E1.21906
G1 X122.144 Y13.104 E4.21776
G1 X122.140 Y13.114 E4.21830
G1 X157.957 Y13.114 E6.00522
G1 X157.732 Y12.725 E6.02764
G1 X166.856 Y12.244 E6.48347
G1 X167.589 Y11.878 E6.52434
G1 X167.789 Y11.678 E6.53845
G1 X168.596 Y11.275 E6.58346
G1 X168.794 Y11.078 E6.59739
G1 X170.541 Y10.203 E6.69487
G1 X174.467 Y9.227 E6.89670
G1 X174.810 Y9.843 E6.93188
G1 X176.705 Y10.474 E7.03152
G1 X180.327 Y14.099 E7.28718
G1 X179.993 Y14.562 E7.31566
G1 X181.514 Y16.084 E7.42301
G1 X178.410 Y19.188 E7.64201
G1 X178.669 Y20.510 E7.70922
G1 X175.509 Y22.089 E7.88546
G1 X175.308 Y22.290 E7.89964
G1 X174.107 Y22.890 E7.96662
G1 X173.905 Y23.092 E7.98088
G1 X173.499 Y23.295 E8.00352
G1 X173.099 Y23.696 E8.03178
G1 X173.099 Y23.899 E8.04191
G1 X172.899 Y24.099 E8.05602
G1 X172.899 Y24.299 E8.06600
G1 X170.458 Y26.741 E8.23826
G1 X150.591 Y61.149 E10.22048
G1 X150.666 Y61.149 E10.22422
G1 X118.243 Y117.309 E13.45948
G1 X117.815 Y118.051 E13.50221
G1 X118.381 Y119.418 E13.57603
G1 X117.499 Y120.300 E13.63826
G1 X117.499 Y120.495 E13.64798
G1 X117.099 Y120.896 E13.67624
G1 X117.099 Y121.099 E13.68637
G1 X116.899 Y121.299 E13.70048
G1 X116.899 Y121.495 E13.71026
G1 X116.499 Y121.896 E13.73852
G1 X116.499 Y122.095 E13.74845
G1 X116.099 Y122.496 E13.77670
G1 X116.099 Y126.054 E13.95421
G1 X117.120 Y127.474 E14.04147
G1 X116.471 Y128.123 E14.08726
G1 X116.472 Y128.126 E14.08742
G1 X115.499 Y129.100 E14.15610
G1 X115.499 Y130.097 E14.20584
G1 X111.719 Y131.984 E14.41662
G1 X108.179 Y131.984 E14.59323
G1 X105.990 Y130.890 E14.71532
G1 X103.799 Y128.698 E14.86994
G1 X103.799 Y128.083 E14.90062
G1 X103.399 Y127.917 E14.92223
G1 X103.399 Y121.899 E15.22247
G1 X103.199 Y121.699 E15.23658
G1 X103.199 Y121.496 E15.24671
G1 X102.799 Y121.095 E15.27497
G1 X102.799 Y120.899 E15.28474
G1 X102.599 Y120.699 E15.29886
G1 X102.599 Y120.499 E15.30883
G1 X101.488 Y119.385 E15.38733
G1 X102.099 Y117.908 E15.46707
G1 X69.328 Y61.149 E18.73689
G1 X69.357 Y61.149 E18.73833
G1 X49.575 Y26.885 E20.71221
G1 X46.799 Y24.090 E20.90875
G1 X46.799 Y23.899 E20.91828
G1 X46.599 Y23.699 E20.93239
G1 X46.599 Y23.499 E20.94237
G1 X46.399 Y23.299 E20.95648
G1 X46.399 Y23.099 E20.96645
G1 X46.199 Y22.899 E20.98057
G1 X46.199 Y22.894 E20.98081
G1 X44.990 Y22.290 E21.04824
G1 X44.787 Y22.088 E21.06253
G1 X40.260 Y19.825 E21.31503
G1 X40.582 Y18.881 E21.36479
G1 X40.399 Y18.698 E21.37770
G1 X40.399 Y15.523 E21.53610
G1 X39.368 Y14.102 E21.62369
G1 X40.399 Y13.071 E21.69643
G0 F9000 X40.899 Y132.708
G1 F1800 X48.625 Y132.706 E22.08188
G1 X52.299 Y132.714 E22.26518
G1 X52.299 Y141.825 E22.71973
G1 X89.904 Y163.535 E24.88606
G1 X131.970 Y139.248 E27.30941
G1 X137.670 Y149.120 E27.87813
G1 X101.303 Y170.117 E29.97318
G1 X137.670 Y191.114 E32.06823
G1 X131.970 Y200.986 E32.63695
G1 X43.461 Y149.884 E37.73583
G1 X40.899 Y149.884 E37.86365
G1 X40.899 Y132.708 E38.72056
G1 F2400 E34.72056
G0 F9000 X105.706 Y116.554
;TYPE:WALL-INNER
G1 F2400 E38.72056
G1 F1800 X75.911 Y64.949 E41.69346
G1 X75.938 Y64.949 E41.69481
G1 X52.496 Y24.343 E44.03400
G1 X53.891 Y21.920 E44.17349
G1 X54.266 Y21.274 E44.21075
G1 X53.636 Y20.182 E44.27365
G1 X54.894 Y20.182 E44.33641
G1 X56.787 Y16.904 E44.52526
G1 X116.531 Y16.904 E47.50590
G1 X116.527 Y16.914 E47.50644
G1 X163.155 Y16.914 E49.83272
G1 X164.656 Y19.513 E49.98245
G1 X165.041 Y20.182 E50.02096
G1 X166.598 Y20.182 E50.09864
G1 X165.821 Y21.528 E50.17618
G1 X167.450 Y24.350 E50.33874
G1 X144.356 Y64.349 E52.64303
G1 X144.394 Y64.415 E52.64683
G1 X114.292 Y116.552 E55.65037
G1 X111.720 Y116.553 E55.77869
G1 X111.001 Y116.551 E55.81456
G1 X110.117 Y118.082 E55.90276
G1 X109.234 Y116.553 E55.99085
G1 X105.706 Y116.554 E56.16686
G0 F9000 X106.795 Y109.862
G1 F1800 X112.443 Y109.863 E56.44864
G1 X113.201 Y109.858 E56.48646
G1 X113.201 Y108.425 E56.55795
G1 X106.795 Y108.424 E56.87754
G1 X106.795 Y109.862 E56.94929
G0 F9000 X106.795 Y65.406
G1 F1800 X113.201 Y65.407 E57.26888
G1 X113.201 Y63.969 E57.34063
G1 X106.795 Y63.968 E57.66022
G1 X106.795 Y65.406 E57.73196
G0 F9000 X107.195 Y65.006
;TYPE:WALL-OUTER
G1 F1800 X112.801 Y65.007 E58.01165
G1 X112.801 Y64.369 E58.04348
G1 X107.195 Y64.368 E58.32316
G1 X107.195 Y65.006 E58.35499
G0 F9000 X106.895 Y65.006
G0 X75.505 Y64.400
G0 X75.245 Y64.549
G1 F1800 X52.034 Y24.344 E60.67110
G1 X53.804 Y21.273 E60.84794
G1 X52.943 Y19.782 E60.93384
G1 X54.663 Y19.782 E61.01965
G1 X56.555 Y16.504 E61.20847
G1 X117.122 Y16.504 E64.23017
G1 X117.118 Y16.514 E64.23071
G1 X163.387 Y16.514 E66.53908
G1 X165.273 Y19.782 E66.72732
G1 X167.291 Y19.782 E66.82800
G1 X166.283 Y21.528 E66.92859
G1 X167.912 Y24.350 E67.09115
G1 X144.818 Y64.349 E69.39544
G1 X144.856 Y64.415 E69.39923
G1 X114.524 Y116.952 E72.42579
G1 X111.232 Y116.952 E72.59003
G1 X110.117 Y118.882 E72.70123
G1 X109.003 Y116.953 E72.81237
G1 X105.474 Y116.954 E72.98843
G1 X75.217 Y64.549 E76.00741
G1 X75.245 Y64.549 E76.00881
G0 F9000 X75.505 Y64.400
G0 X107.196 Y108.525
G0 X107.195 Y108.824
G1 F1800 X107.195 Y109.462 E76.04064
G1 X112.442 Y109.463 E76.30241
G1 X112.801 Y109.461 E76.32032
G1 X112.801 Y108.825 E76.35205
G1 X107.195 Y108.824 E76.63174
G0 F9000 X106.655 Y108.634
;TYPE:SKIN
G1 F1800 X93.970 Y95.950 E77.52670
G0 F9000 X93.198 Y94.612
G1 F1800 X106.868 Y108.282 E78.49119
G0 F9000 X107.434 Y108.282
G1 F1800 X92.425 Y93.274 E79.55012
G0 F9000 X91.653 Y91.935
G1 F1800 X107.999 Y108.282 E80.70346
G0 F9000 X108.565 Y108.282
G1 F1800 X90.880 Y90.597 E81.95123
G0 F9000 X90.107 Y89.258
G1 F1800 X109.132 Y108.283 E83.29355
G0 F9000 X109.697 Y108.283
G1 F1800 X89.334 Y87.920 E84.73026
G0 F9000 X88.561 Y86.581
G1 F1800 X110.263 Y108.283 E86.26146
G0 F9000 X110.829 Y108.283
G1 F1800 X87.788 Y85.243 E87.88709
G0 F9000 X87.015 Y83.904
G1 F1800 X111.395 Y108.284 E89.60723
G0 F9000 X111.961 Y108.284
G1 F1800 X86.242 Y82.566 E91.42181
G0 F9000 X85.470 Y81.227
G1 F1800 X112.526 Y108.284 E93.33079
G0 F9000 X113.092 Y108.284
G1 F1800 X84.697 Y79.888 E95.33425
G0 F9000 X83.924 Y78.550
G1 F1800 X116.984 Y111.610 E97.66681
G0 F9000 X116.777 Y111.968
G1 F1800 X113.340 Y108.531 E97.90931
G0 F9000 X113.340 Y109.097
G1 F1800 X116.570 Y112.327 E98.13720
G0 F9000 X116.362 Y112.685
G1 F1800 X113.340 Y109.663 E98.35042
G0 F9000 X113.108 Y109.997
G1 F1800 X116.155 Y113.044 E98.56540
G0 F9000 X115.948 Y113.402
G1 F1800 X112.543 Y109.997 E98.80564
G0 F9000 X111.978 Y109.998
G1 F1800 X115.742 Y113.762 E99.07121
G0 F9000 X115.534 Y114.120
G1 F1800 X111.412 Y109.998 E99.36204
G0 F9000 X110.847 Y109.998
G1 F1800 X115.327 Y114.479 E99.67817
G0 F9000 X115.120 Y114.837
G1 F1800 X110.281 Y109.998 E100.01958
G0 F9000 X109.716 Y109.999
G1 F1800 X114.913 Y115.196 E100.38626
G0 F9000 X114.706 Y115.555
G1 F1800 X109.151 Y109.999 E100.77823
G0 F9000 X108.586 Y110.000
G1 F1800 X114.499 Y115.913 E101.19543
G0 F9000 X114.292 Y116.272
G1 F1800 X108.020 Y110.000 E101.63795
G0 F9000 X107.455 Y110.001
G1 F1800 X113.864 Y116.410 E102.09014
G0 F9000 X113.299 Y116.410
G1 F1800 X106.889 Y110.001 E102.54236
G0 F9000 X106.655 Y109.766
G1 F1800 X95.516 Y98.627 E103.32828
G0 F9000 X94.743 Y97.289
G1 F1800 X106.655 Y109.200 E104.16870
G0 F9000 X103.245 Y112.013
G1 F1800 X107.644 Y116.412 E104.47907
G0 F9000 X108.209 Y116.412
G1 F1800 X102.472 Y110.674 E104.88389
G0 F9000 X101.699 Y109.336
G1 F1800 X108.775 Y116.412 E105.38314
G0 F9000 X107.079 Y116.413
G1 F1800 X104.017 Y113.351 E105.59918
G0 F9000 X104.790 Y114.689
G1 F1800 X106.513 Y116.413 E105.72078
G0 F9000 X105.947 Y116.413
G1 F1800 X105.563 Y116.028 E105.74791
G0 F9000 X109.219 Y116.580
G0 X110.051 Y117.688
G1 F1800 X110.134 Y117.771 E105.75376
G0 F9000 X110.341 Y117.412
G1 F1800 X100.926 Y107.997 E106.41804
G0 F9000 X100.153 Y106.659
G1 F1800 X110.549 Y117.054 E107.15150
G0 F9000 X110.756 Y116.695
G1 F1800 X99.381 Y105.320 E107.95407
G0 F9000 X98.608 Y103.982
G1 F1800 X111.036 Y116.410 E108.83093
G0 F9000 X111.601 Y116.410
G1 F1800 X97.835 Y102.643 E109.80223
G0 F9000 X97.062 Y101.305
G1 F1800 X112.167 Y116.410 E110.86797
G0 F9000 X112.733 Y116.410
G1 F1800 X96.289 Y99.966 E112.02818
G0 F9000 X113.142 Y108.484
G0 X117.190 Y111.251
G1 F1800 X83.151 Y77.211 E114.42986
G0 F9000 X82.379 Y75.873
G1 F1800 X117.398 Y110.892 E116.90063
G0 F9000 X117.605 Y110.534
G1 F1800 X81.606 Y74.535 E119.44056
G0 F9000 X80.833 Y73.196
G1 F1800 X117.812 Y110.175 E122.04963
G0 F9000 X118.019 Y109.817
G1 F1800 X80.060 Y71.858 E124.72784
G0 F9000 X79.287 Y70.519
G1 F1800 X118.226 Y109.458 E127.47520
G0 F9000 X118.433 Y109.099
G1 F1800 X78.515 Y69.181 E130.29163
G0 F9000 X77.742 Y67.842
G1 F1800 X118.640 Y108.741 E133.17724
G0 F9000 X118.847 Y108.382
G1 F1800 X76.969 Y66.504 E136.13196
G0 F9000 X76.196 Y65.165
G1 F1800 X119.054 Y108.023 E139.15582
G0 F9000 X119.262 Y107.665
G1 F1800 X75.487 Y63.891 E142.24435
G0 F9000 X74.715 Y62.552
G1 F1800 X119.468 Y107.306 E145.40195
G0 F9000 X119.675 Y106.947
G1 F1800 X73.942 Y61.214 E148.62866
G0 F9000 X73.169 Y59.876
G1 F1800 X119.882 Y106.589 E151.92451
G0 F9000 X120.090 Y106.230
G1 F1800 X72.397 Y58.537 E155.28951
G0 F9000 X71.624 Y57.199
G1 F1800 X120.297 Y105.872 E158.72365
G0 F9000 X120.503 Y105.513
G1 F1800 X70.852 Y55.861 E162.22684
G0 F9000 X70.079 Y54.523
G1 F1800 X120.710 Y105.154 E165.79913
G0 F9000 X120.918 Y104.796
G1 F1800 X69.307 Y53.185 E169.44056
G0 F9000 X68.534 Y51.846
G1 F1800 X121.125 Y104.437 E173.15114
G0 F9000 X121.332 Y104.079
G1 F1800 X67.762 Y50.508 E176.93083
G0 F9000 X66.989 Y49.170
G1 F1800 X121.539 Y103.720 E180.77963
G0 F9000 X121.746 Y103.361
G1 F1800 X66.217 Y47.832 E184.69750
G0 F9000 X65.444 Y46.493
G1 F1800 X121.953 Y103.002 E188.68451
G0 F9000 X122.160 Y102.644
G1 F1800 X64.671 Y45.155 E192.74067
G0 F9000 X63.899 Y43.817
G1 F1800 X122.367 Y102.285 E196.86590
G0 F9000 X122.574 Y101.927
G1 F1800 X63.126 Y42.479 E201.06028
G0 F9000 X62.354 Y41.140
G1 F1800 X122.781 Y101.568 E205.32377
G0 F9000 X122.988 Y101.209
G1 F1800 X61.581 Y39.802 E209.65636
G0 F9000 X60.809 Y38.464
G1 F1800 X123.195 Y100.851 E214.05807
G0 F9000 X123.402 Y100.492
G1 F1800 X60.036 Y37.125 E218.52892
G0 F9000 X59.264 Y35.788
G1 F1800 X123.610 Y100.134 E223.06887
G0 F9000 X123.817 Y99.775
G1 F1800 X58.491 Y34.449 E227.67798
G0 F9000 X57.719 Y33.111
G1 F1800 X124.023 Y99.416 E232.35612
G0 F9000 X124.230 Y99.057
G1 F1800 X56.946 Y31.773 E237.10337
G0 F9000 X56.173 Y30.434
G1 F1800 X124.438 Y98.699 E241.91983
G0 F9000 X124.645 Y98.340
G1 F1800 X55.401 Y29.096 E246.80537
G0 F9000 X54.628 Y27.758
G1 F1800 X124.852 Y97.982 E251.76005
G0 F9000 X125.058 Y97.623
G1 F1800 X53.856 Y26.420 E256.78377
G0 F9000 X53.083 Y25.081
G1 F1800 X125.266 Y97.264 E261.87667
G0 F9000 X125.473 Y96.906
G1 F1800 X52.748 Y24.181 E267.00782
G0 F9000 X52.955 Y23.823
G1 F1800 X125.680 Y96.547 E272.13892
G0 F9000 X125.887 Y96.189
G1 F1800 X53.163 Y23.464 E277.27003
G0 F9000 X53.370 Y23.106
G1 F1800 X126.094 Y95.830 E282.40110
G0 F9000 X126.301 Y95.471
G1 F1800 X53.576 Y22.746 E287.53224
G0 F9000 X53.783 Y22.388
G1 F1800 X126.508 Y95.112 E292.66335
G0 F9000 X126.715 Y94.754
G1 F1800 X53.991 Y22.029 E297.79445
G0 F9000 X54.197 Y21.670
G1 F1800 X126.922 Y94.395 E302.92559
G0 F9000 X127.130 Y94.037
G1 F1800 X54.404 Y21.312 E308.05677
G0 F9000 X54.546 Y20.322
G1 F1800 X127.543 Y93.319 E313.20710
G0 F9000 X127.750 Y92.961
G1 F1800 X55.023 Y20.233 E318.33842
G0 F9000 X53.980 Y20.322
G1 F1800 X127.336 Y93.678 E323.51408
G0 F9000 X127.958 Y92.602
G1 F1800 X55.230 Y19.875 E328.64540
G0 F9000 X55.437 Y19.516
G1 F1800 X128.165 Y92.244 E333.77675
G0 F9000 X128.371 Y91.884
G1 F1800 X55.645 Y19.158 E338.90797
G0 F9000 X55.851 Y18.799
G1 F1800 X128.578 Y91.526 E344.03925
G0 F9000 X128.786 Y91.167
G1 F1800 X56.058 Y18.440 E349.17057
G0 F9000 X56.265 Y18.082
G1 F1800 X128.993 Y90.809 E354.30189
G0 F9000 X129.200 Y90.450
G1 F1800 X56.473 Y17.723 E359.43317
G0 F9000 X56.680 Y17.365
G1 F1800 X129.407 Y90.092 E364.56445
G0 F9000 X129.614 Y89.733
G1 F1800 X56.924 Y17.044 E369.69309
G0 F9000 X57.490 Y17.044
G1 F1800 X129.821 Y89.374 E374.79639
G0 F9000 X130.028 Y89.016
G1 F1800 X58.056 Y17.044 E379.87441
G0 F9000 X58.621 Y17.044
G1 F1800 X106.654 Y65.076 E383.26336
G0 F9000 X106.654 Y64.510
G1 F1800 X59.187 Y17.044 E386.61238
G0 F9000 X59.753 Y17.044
G1 F1800 X106.654 Y63.945 E389.92150
G0 F9000 X107.102 Y63.827
G1 F1800 X60.319 Y17.044 E393.22229
G0 F9000 X60.884 Y17.044
G1 F1800 X107.668 Y63.827 E396.52312
G0 F9000 X108.234 Y63.827
G1 F1800 X61.450 Y17.044 E399.82395
G0 F9000 X62.016 Y17.044
G1 F1800 X108.799 Y63.827 E403.12474
G0 F9000 X109.365 Y63.827
G1 F1800 X62.581 Y17.044 E406.42557
G0 F9000 X63.147 Y17.044
G1 F1800 X109.931 Y63.827 E409.72640
G0 F9000 X110.497 Y63.828
G1 F1800 X63.713 Y17.044 E413.02726
G0 F9000 X64.278 Y17.044
G1 F1800 X111.063 Y63.828 E416.32816
G0 F9000 X111.628 Y63.828
G1 F1800 X64.844 Y17.044 E419.62903
G0 F9000 X65.410 Y17.044
G1 F1800 X112.194 Y63.828 E422.92989
G0 F9000 X112.760 Y63.828
G1 F1800 X65.975 Y17.044 E426.23079
G0 F9000 X66.541 Y17.044
G1 F1800 X113.325 Y63.828 E429.53165
G0 F9000 X113.340 Y63.842
G1 F1800 X133.134 Y83.636 E430.92823
G0 F9000 X133.341 Y83.278
G1 F1800 X67.107 Y17.044 E435.60139
G0 F9000 X67.672 Y17.044
G1 F1800 X133.548 Y82.919 E440.24926
G0 F9000 X133.755 Y82.561
G1 F1800 X68.238 Y17.044 E444.87184
G0 F9000 X68.804 Y17.044
G1 F1800 X133.962 Y82.202 E449.46909
G0 F9000 X134.169 Y81.843
G1 F1800 X69.370 Y17.044 E454.04101
G0 F9000 X69.935 Y17.044
G1 F1800 X134.376 Y81.484 E458.58764
G0 F9000 X134.583 Y81.126
G1 F1800 X70.501 Y17.044 E463.10897
G0 F9000 X71.067 Y17.044
G1 F1800 X134.790 Y80.767 E467.60497
G0 F9000 X134.997 Y80.409
G1 F1800 X71.632 Y17.044 E472.07571
G0 F9000 X72.198 Y17.044
G1 F1800 X135.204 Y80.050 E476.52113
G0 F9000 X132.926 Y83.995
G1 F1800 X113.340 Y64.408 E477.90306
G0 F9000 X113.340 Y64.973
G1 F1800 X132.720 Y84.354 E479.27046
G0 F9000 X132.513 Y84.712
G1 F1800 X113.340 Y65.539 E480.62322
G0 F9000 X112.781 Y65.546
G1 F1800 X132.306 Y85.071 E482.00081
G0 F9000 X132.098 Y85.429
G1 F1800 X112.215 Y65.546 E483.40366
G0 F9000 X111.650 Y65.546
G1 F1800 X131.891 Y85.788 E484.83181
G0 F9000 X131.685 Y86.147
G1 F1800 X111.084 Y65.546 E486.28532
G0 F9000 X110.518 Y65.546
G1 F1800 X131.478 Y86.506 E487.76416
G0 F9000 X131.270 Y86.864
G1 F1800 X109.952 Y65.546 E489.26826
G0 F9000 X109.387 Y65.546
G1 F1800 X131.063 Y87.223 E490.79766
G0 F9000 X130.856 Y87.581
G1 F1800 X108.821 Y65.546 E492.35235
G0 F9000 X108.255 Y65.546
G1 F1800 X130.649 Y87.940 E493.93236
G0 F9000 X130.442 Y88.299
G1 F1800 X107.690 Y65.546 E495.53768
G0 F9000 X107.124 Y65.546
G1 F1800 X130.235 Y88.657 E497.16828
G0 F9000 X135.411 Y79.691
G1 F1800 X72.764 Y17.044 E501.58837
G0 F9000 X73.329 Y17.044
G1 F1800 X135.618 Y79.333 E505.98319
G0 F9000 X135.826 Y78.974
G1 F1800 X73.895 Y17.044 E510.35272
G0 F9000 X74.461 Y17.044
